; generated by PrusaSlicer 2.3.1 on 2021-05-21 at 01:49:19 UTC

; 

; external perimeters extrusion width = 0.45mm
; perimeters extrusion width = 0.45mm
; infill extrusion width = 0.45mm
; solid infill extrusion width = 0.45mm
; top infill extrusion width = 0.40mm
; first layer extrusion width = 0.42mm

M73 P0 R43
M73 Q0 S43
M201 X1000 Y1000 Z200 E5000 ; sets maximum accelerations, mm/sec^2
M203 X200 Y200 Z12 E120 ; sets maximum feedrates, mm/sec
M204 P1250 R1250 T1250 ; sets acceleration (P, T) and retract acceleration (R), mm/sec^2
M205 X8.00 Y8.00 Z0.40 E4.50 ; sets the jerk limits, mm/sec
M205 S0 T0 ; sets the minimum extruding and travel feed rate, mm/sec
M107
;TYPE:Custom
M862.3 P "MK3S" ; printer model check
M862.1 P0.4 ; nozzle diameter check
M115 U3.9.3 ; tell printer latest fw version
G90 ; use absolute coordinates
M83 ; extruder relative mode
M104 S215 ; set extruder temp
M140 S60 ; set bed temp
M190 S60 ; wait for bed temp
M109 S215 ; wait for extruder temp
G28 W ; home all without mesh bed level
G80 ; mesh bed leveling
G1 Y-3.0 F1000.0 ; go outside print area
G92 E0.0
G1 X60.0 E9.0 F1000.0 ; intro line
G1 X100.0 E12.5 F1000.0 ; intro line
G92 E0.0
M221 S95

; Don't change E values below. Excessive value can damage the printer.

G21 ; set units to millimeters
G90 ; use absolute coordinates
M83 ; use relative distances for extrusion
M900 K0.05 ; Filament gcode LA 1.5
M900 K30 ; Filament gcode LA 1.0
;LAYER_CHANGE
;Z:0.2
;HEIGHT:0.2
;BEFORE_LAYER_CHANGE
G92 E0.0
;0.2


G1 E-0.80000 F2100.000
G1 Z0.400 F10800.000
;AFTER_LAYER_CHANGE
;0.2
G1 X97.406 Y86.843
G1 Z0.200
G1 E0.80000 F2100.000
M204 S1000
;TYPE:Skirt
;WIDTH:0.42
G1 F1200.000
G1 X98.605 Y86.446 E0.03960
G1 X106.549 Y85.489 E0.25087
G1 X146.500 Y84.901 E1.25278
G1 X147.916 Y85.107 E0.04486
G1 X155.253 Y87.889 E0.24602
G1 X155.724 Y88.136 E0.01668
G1 X156.653 Y88.835 E0.03646
G1 X161.886 Y94.743 E0.24746
G1 X162.479 Y95.750 E0.03663
G1 X162.679 Y96.268 E0.01740
G1 X164.540 Y103.820 E0.24388
G1 X164.607 Y104.355 E0.01692
G1 X164.556 Y105.524 E0.03668
G1 X162.679 Y113.144 E0.24606
G1 X162.484 Y113.655 E0.01716
G1 X161.888 Y114.668 E0.03685
G1 X156.688 Y120.542 E0.24597
M73 P0 R42
G1 X156.296 Y120.885 E0.01633
G1 X155.322 Y121.497 E0.03608
G1 X147.924 Y124.304 E0.24810
G1 X146.607 Y124.511 E0.04179
G1 X106.624 Y125.099 E1.25378
G1 X98.590 Y124.138 E0.25368
G1 X98.112 Y124.012 E0.01550
G1 X97.055 Y123.558 E0.03607
G1 X90.247 Y118.801 E0.26040
G1 X89.451 Y117.823 E0.03953
G1 X85.739 Y110.733 E0.25093
G1 X85.395 Y109.255 E0.04758
G1 X85.393 Y101.409 E0.24602
G1 X85.458 Y100.869 E0.01704
G1 X85.791 Y99.738 E0.03697
G1 X89.450 Y92.765 E0.24692
G1 X90.197 Y91.839 E0.03728
G1 X90.608 Y91.478 E0.01716
G1 X97.357 Y86.876 E0.25610
; printing object iCode Coin Souvenir V4 (TEST).stl id:0 copy 0
;WIPE_START
G1 F8640.000
G1 X98.605 Y86.446 E-0.30499
G1 X100.562 Y86.210 E-0.45501
;WIPE_END
G1 E-0.04000 F2100.000
G1 Z0.600 F10800.000
G1 X115.785 Y101.888
G1 Z0.200
G1 E0.80000 F2100.000
;TYPE:Perimeter
G1 F1200.000
G1 X94.360 Y101.888 E0.67174
G1 X94.505 Y99.940 E0.06125
G1 X94.678 Y99.169 E0.02477
G1 X94.960 Y98.424 E0.02498
G1 X95.345 Y97.713 E0.02534
G1 X95.823 Y97.045 E0.02577
G1 X96.387 Y96.423 E0.02632
G1 X97.029 Y95.851 E0.02696
G1 X97.741 Y95.332 E0.02763
G1 X98.516 Y94.868 E0.02831
G1 X99.346 Y94.460 E0.02900
G1 X100.225 Y94.112 E0.02964
G1 X101.145 Y93.825 E0.03021
G1 X102.097 Y93.600 E0.03069
G1 X103.075 Y93.438 E0.03108
G1 X104.070 Y93.340 E0.03133
G1 X105.072 Y93.307 E0.03145
G1 X106.075 Y93.340 E0.03146
G1 X107.070 Y93.438 E0.03133
G1 X108.047 Y93.600 E0.03107
G1 X109.000 Y93.825 E0.03070
G1 X109.920 Y94.112 E0.03021
G1 X110.798 Y94.460 E0.02963
G1 X111.629 Y94.868 E0.02901
G1 X112.404 Y95.332 E0.02831
G1 X113.116 Y95.851 E0.02763
G1 X113.758 Y96.423 E0.02696
G1 X114.322 Y97.045 E0.02633
G1 X114.800 Y97.714 E0.02577
G1 X115.184 Y98.424 E0.02533
G1 X115.467 Y99.169 E0.02499
G1 X115.640 Y99.940 E0.02478
G1 X115.780 Y101.829 E0.05937
G1 X115.379 Y101.511 F10800.000
G1 F1200.000
G1 X94.767 Y101.511 E0.64627
M73 Q0 S42
G1 X94.879 Y99.996 E0.04765
G1 X95.040 Y99.278 E0.02306
G1 X95.304 Y98.581 E0.02335
G1 X95.665 Y97.914 E0.02381
G1 X96.117 Y97.282 E0.02435
G1 X96.653 Y96.691 E0.02501
G1 X97.266 Y96.145 E0.02575
G1 X97.950 Y95.646 E0.02652
G1 X98.696 Y95.199 E0.02728
G1 X99.499 Y94.806 E0.02804
G1 X100.351 Y94.468 E0.02874
G1 X101.245 Y94.189 E0.02935
G1 X102.172 Y93.970 E0.02987
G1 X103.125 Y93.812 E0.03029
G1 X104.094 Y93.717 E0.03055
G1 X105.072 Y93.685 E0.03068
G1 X106.051 Y93.717 E0.03069
G1 X107.021 Y93.812 E0.03055
G1 X107.973 Y93.970 E0.03027
G1 X108.900 Y94.189 E0.02988
G1 X109.794 Y94.468 E0.02935
G1 X110.646 Y94.806 E0.02873
G1 X111.449 Y95.199 E0.02805
G1 X112.195 Y95.646 E0.02728
G1 X112.879 Y96.145 E0.02652
G1 X113.492 Y96.691 E0.02575
G1 X114.028 Y97.282 E0.02502
G1 X114.480 Y97.914 E0.02434
G1 X114.841 Y98.581 E0.02380
G1 X115.105 Y99.278 E0.02336
G1 X115.266 Y99.996 E0.02307
G1 X115.374 Y101.452 E0.04577
G1 X114.972 Y101.134 F10800.000
;TYPE:External perimeter
G1 F1200.000
G1 X95.173 Y101.134 E0.62081
G1 X95.253 Y100.051 E0.03405
G1 X95.402 Y99.387 E0.02136
G1 X95.648 Y98.739 E0.02172
G1 X95.986 Y98.114 E0.02227
G1 X96.411 Y97.519 E0.02293
G1 X96.919 Y96.959 E0.02370
G1 X97.503 Y96.438 E0.02454
G1 X98.158 Y95.961 E0.02540
G1 X98.876 Y95.531 E0.02625
G1 X99.652 Y95.151 E0.02708
G1 X100.477 Y94.824 E0.02783
G1 X101.344 Y94.553 E0.02850
G1 X102.246 Y94.339 E0.02905
G1 X103.174 Y94.186 E0.02949
G1 X104.119 Y94.093 E0.02977
G1 X105.072 Y94.062 E0.02991
G1 X106.026 Y94.093 E0.02992
G1 X106.971 Y94.186 E0.02977
G1 X107.899 Y94.339 E0.02948
G1 X108.801 Y94.553 E0.02906
G1 X109.668 Y94.824 E0.02850
G1 X110.493 Y95.151 E0.02782
G1 X111.269 Y95.531 E0.02709
G1 X111.987 Y95.961 E0.02625
G1 X112.642 Y96.438 E0.02540
G1 X113.226 Y96.959 E0.02454
G1 X113.734 Y97.519 E0.02371
G1 X114.159 Y98.114 E0.02292
G1 X114.497 Y98.739 E0.02227
G1 X114.743 Y99.386 E0.02173
G1 X114.892 Y100.051 E0.02136
G1 X114.968 Y101.074 E0.03217
G1 X114.990 Y101.534 F10800.000
;WIPE_START
M73 Q1 S42
G1 F8640.000
G1 X111.677 Y101.084 E-0.76000
;WIPE_END
G1 E-0.04000 F2100.000
G1 Z0.600 F10800.000
G1 X115.785 Y108.698
M73 P1 R42
G1 Z0.200
G1 E0.80000 F2100.000
;TYPE:Perimeter
G1 F1200.000
G1 X97.601 Y108.698 E0.57014
G1 X96.559 Y108.708 E0.03269
G1 X96.123 Y108.750 E0.01372
G1 X96.112 Y108.248 E0.01573
G1 X96.029 Y107.880 E0.01185
G1 X95.811 Y107.340 E0.01826
G1 X95.478 Y106.842 E0.01878
G1 X95.057 Y106.421 E0.01867
G1 X94.563 Y106.090 E0.01864
G1 X94.013 Y105.862 E0.01867
G1 X93.430 Y105.746 E0.01864
G1 X92.853 Y105.745 E0.01809
G1 X92.211 Y105.878 E0.02055
G1 X92.230 Y105.828 E0.00166
G1 X92.230 Y104.757 E0.03357
G1 X91.863 Y103.756 E0.03344
G1 X91.178 Y102.938 E0.03345
G1 X90.269 Y102.414 E0.03291
G1 X89.561 Y102.267 E0.02267
G1 X89.261 Y102.136 E0.01025
G1 X89.085 Y101.965 E0.00770
G1 X88.976 Y101.744 E0.00773
G1 X88.949 Y101.499 E0.00772
G1 X89.008 Y101.260 E0.00772
G1 X89.146 Y101.055 E0.00774
G1 X89.345 Y100.909 E0.00774
G1 X89.581 Y100.841 E0.00771
G1 X89.907 Y100.863 E0.01023
G1 X90.600 Y101.064 E0.02263
G1 X91.650 Y101.021 E0.03296
G1 X92.638 Y100.617 E0.03346
G1 X93.428 Y99.896 E0.03354
G1 X93.922 Y98.952 E0.03340
G1 X94.067 Y97.895 E0.03348
G1 X93.838 Y96.851 E0.03351
G1 X93.277 Y95.964 E0.03289
G1 X92.719 Y95.507 E0.02262
G1 X92.516 Y95.251 E0.01026
G1 X92.438 Y95.016 E0.00774
G1 X92.444 Y94.770 E0.00774
G1 X92.534 Y94.541 E0.00771
G1 X92.697 Y94.357 E0.00769
G1 X92.915 Y94.239 E0.00777
G1 X93.158 Y94.203 E0.00770
G1 X93.399 Y94.252 E0.00771
G1 X93.678 Y94.424 E0.01028
G1 X94.200 Y94.924 E0.02267
G1 X95.149 Y95.372 E0.03291
G1 X96.211 Y95.473 E0.03343
G1 X97.245 Y95.204 E0.03350
G1 X98.123 Y94.596 E0.03349
G1 X98.740 Y93.727 E0.03343
G1 X99.024 Y92.699 E0.03343
G1 X98.940 Y91.650 E0.03300
G1 X98.657 Y90.986 E0.02265
G1 X98.596 Y90.665 E0.01023
G1 X98.636 Y90.421 E0.00774
G1 X98.756 Y90.207 E0.00771
G1 X98.942 Y90.046 E0.00773
G1 X99.173 Y89.959 E0.00775
G1 X99.420 Y89.955 E0.00773
G1 X99.651 Y90.036 E0.00767
G1 X99.842 Y90.192 E0.00775
G1 X100.010 Y90.473 E0.01026
G1 X100.239 Y91.157 E0.02262
G1 X100.871 Y91.997 E0.03295
G1 X101.764 Y92.579 E0.03342
G1 X102.805 Y92.822 E0.03352
G1 X103.864 Y92.693 E0.03344
G1 X104.816 Y92.211 E0.03347
G1 X105.545 Y91.429 E0.03352
G1 X105.957 Y90.462 E0.03295
G1 X106.016 Y89.744 E0.02261
G1 X106.111 Y89.431 E0.01027
G1 X106.258 Y89.235 E0.00769
G1 X106.465 Y89.101 E0.00772
G1 X106.707 Y89.044 E0.00778
G1 X106.949 Y89.074 E0.00767
G1 X107.169 Y89.185 E0.00773
G1 X107.338 Y89.365 E0.00773
G1 X107.434 Y89.592 E0.00771
G1 X107.452 Y89.919 E0.01027
G1 X107.337 Y90.631 E0.02264
G1 X107.507 Y91.669 E0.03296
G1 X108.028 Y92.600 E0.03345
G1 X108.836 Y93.297 E0.03346
G1 X109.833 Y93.675 E0.03345
G1 X110.901 Y93.690 E0.03346
G1 X111.908 Y93.338 E0.03347
G1 X112.724 Y92.674 E0.03296
G1 X113.110 Y92.063 E0.02266
G1 X113.339 Y91.831 E0.01022
G1 X113.561 Y91.725 E0.00773
G1 X113.806 Y91.702 E0.00770
G1 X114.045 Y91.765 E0.00774
G1 X114.249 Y91.905 E0.00777
G1 X114.391 Y92.105 E0.00768
G1 X114.456 Y92.343 E0.00773
G1 X114.436 Y92.588 E0.00771
G1 X114.299 Y92.887 E0.01031
G1 X113.868 Y93.464 E0.02258
G1 X113.535 Y94.458 E0.03289
G1 X113.563 Y95.526 E0.03348
G1 X113.954 Y96.520 E0.03350
G1 X114.664 Y97.319 E0.03351
G1 X115.601 Y97.827 E0.03345
G1 X116.656 Y97.984 E0.03344
G1 X117.685 Y97.774 E0.03293
G1 X118.311 Y97.415 E0.02265
G1 X118.623 Y97.315 E0.01026
G1 X118.870 Y97.325 E0.00773
G1 X119.097 Y97.418 E0.00770
G1 X119.279 Y97.584 E0.00774
G1 X119.394 Y97.803 E0.00776
G1 X119.427 Y98.047 E0.00769
G1 X119.375 Y98.288 E0.00773
G1 X119.243 Y98.495 E0.00770
G1 X118.985 Y98.695 E0.01024
G1 X118.331 Y99.006 E0.02271
G1 X117.576 Y99.734 E0.03287
G1 X117.104 Y100.690 E0.03345
G1 X116.990 Y101.753 E0.03351
G1 X117.246 Y102.790 E0.03347
G1 X117.839 Y103.676 E0.03343
G1 X118.627 Y104.252 E0.03060
G1 X120.755 Y104.627 E0.06773
G1 X120.967 Y104.749 E0.00768
G1 X121.125 Y104.938 E0.00774
G1 X121.210 Y105.170 E0.00774
G1 X121.210 Y105.416 E0.00770
G1 X121.125 Y105.647 E0.00774
G1 X120.967 Y105.837 E0.00775
G1 X120.754 Y105.959 E0.00769
G1 X120.432 Y106.016 E0.01028
G1 X119.711 Y105.989 E0.02260
G1 X118.703 Y106.280 E0.03292
G1 X117.839 Y106.910 E0.03350
G1 X117.245 Y107.798 E0.03351
G1 X116.990 Y108.833 E0.03340
G1 X117.104 Y109.896 E0.03352
G1 X117.575 Y110.852 E0.03342
G1 X118.331 Y111.580 E0.03292
G1 X118.985 Y111.891 E0.02269
G1 X119.243 Y112.091 E0.01023
G1 X119.374 Y112.298 E0.00771
G1 X119.427 Y112.540 E0.00774
G1 X119.394 Y112.783 E0.00769
G1 X119.279 Y113.002 E0.00776
G1 X119.097 Y113.168 E0.00774
G1 X118.870 Y113.261 E0.00766
G1 X118.623 Y113.271 E0.00776
G1 X118.311 Y113.172 E0.01026
G1 X117.685 Y112.812 E0.02264
G1 X116.657 Y112.601 E0.03292
G1 X115.601 Y112.759 E0.03345
G1 X114.664 Y113.267 E0.03345
G1 X113.954 Y114.066 E0.03351
G1 X113.563 Y115.060 E0.03350
G1 X113.535 Y116.127 E0.03347
G1 X113.868 Y117.122 E0.03288
G1 X114.299 Y117.699 E0.02260
G1 X114.436 Y117.998 E0.01032
G1 X114.456 Y118.243 E0.00770
G1 X114.391 Y118.481 E0.00774
G1 X114.249 Y118.681 E0.00770
G1 X114.045 Y118.821 E0.00773
G1 X113.806 Y118.884 E0.00777
G1 X113.561 Y118.861 E0.00771
G1 X113.339 Y118.755 E0.00772
G1 X113.110 Y118.523 E0.01022
G1 X112.724 Y117.912 E0.02265
G1 X111.909 Y117.248 E0.03298
G1 X110.900 Y116.896 E0.03348
G1 X109.833 Y116.912 E0.03345
G1 X108.836 Y117.289 E0.03344
G1 X108.028 Y117.986 E0.03346
G1 X107.507 Y118.917 E0.03346
G1 X107.337 Y119.955 E0.03296
G1 X107.452 Y120.667 E0.02264
G1 X107.434 Y120.994 E0.01027
G1 X107.338 Y121.221 E0.00772
G1 X107.170 Y121.400 E0.00771
G1 X106.950 Y121.512 E0.00772
G1 X106.705 Y121.542 E0.00774
G1 X106.465 Y121.486 E0.00772
G1 X106.259 Y121.351 E0.00773
G1 X106.111 Y121.155 E0.00770
G1 X106.016 Y120.842 E0.01025
G1 X105.957 Y120.123 E0.02262
G1 X105.545 Y119.157 E0.03295
G1 X104.816 Y118.376 E0.03350
G1 X103.864 Y117.893 E0.03348
G1 X102.805 Y117.764 E0.03344
G1 X101.764 Y118.006 E0.03352
G1 X100.871 Y118.589 E0.03344
G1 X100.240 Y119.428 E0.03292
G1 X100.010 Y120.112 E0.02262
G1 X99.842 Y120.394 E0.01027
G1 X99.651 Y120.550 E0.00775
G1 X99.420 Y120.631 E0.00767
G1 X99.173 Y120.627 E0.00774
G1 X98.942 Y120.540 E0.00777
G1 X98.756 Y120.379 E0.00769
G1 X98.636 Y120.164 E0.00772
G1 X98.596 Y119.921 E0.00773
G1 X98.657 Y119.601 E0.01022
G1 X98.940 Y118.936 E0.02265
G1 X99.024 Y117.887 E0.03300
G1 X98.740 Y116.859 E0.03342
G1 X98.123 Y115.989 E0.03345
G1 X97.245 Y115.382 E0.03348
G1 X96.211 Y115.113 E0.03349
G1 X95.149 Y115.213 E0.03343
G1 X94.200 Y115.662 E0.03293
G1 X93.678 Y116.162 E0.02266
G1 X93.398 Y116.334 E0.01029
G1 X93.158 Y116.383 E0.00770
G1 X92.915 Y116.347 E0.00770
G1 X92.697 Y116.229 E0.00775
G1 X92.534 Y116.045 E0.00771
G1 X92.444 Y115.817 E0.00770
G1 X92.438 Y115.569 E0.00776
G1 X92.516 Y115.335 E0.00774
G1 X92.719 Y115.079 E0.01025
G1 X93.277 Y114.622 E0.02261
G1 X93.839 Y113.735 E0.03294
G1 X94.069 Y112.673 E0.03408
G1 X93.896 Y111.676 E0.03173
G1 X94.266 Y111.569 E0.01209
G1 X94.667 Y111.365 E0.01412
G1 X94.959 Y112.159 E0.02655
G1 X95.345 Y112.873 E0.02543
G1 X95.823 Y113.541 E0.02578
G1 X96.387 Y114.163 E0.02632
G1 X97.029 Y114.735 E0.02696
G1 X97.741 Y115.254 E0.02763
G1 X98.516 Y115.718 E0.02831
G1 X99.346 Y116.126 E0.02900
G1 X100.225 Y116.474 E0.02964
G1 X101.145 Y116.761 E0.03021
G1 X102.097 Y116.987 E0.03069
G1 X103.075 Y117.149 E0.03108
G1 X104.070 Y117.246 E0.03133
G1 X105.072 Y117.279 E0.03145
G1 X106.075 Y117.246 E0.03146
G1 X107.070 Y117.149 E0.03133
G1 X108.047 Y116.987 E0.03107
G1 X109.000 Y116.761 E0.03070
G1 X109.920 Y116.474 E0.03021
G1 X110.798 Y116.126 E0.02963
G1 X111.629 Y115.718 E0.02901
G1 X112.404 Y115.254 E0.02831
G1 X113.116 Y114.735 E0.02763
G1 X113.758 Y114.163 E0.02696
G1 X114.322 Y113.541 E0.02633
G1 X114.800 Y112.873 E0.02577
G1 X115.184 Y112.162 E0.02533
G1 X115.467 Y111.417 E0.02499
G1 X115.640 Y110.646 E0.02478
G1 X115.780 Y108.758 E0.05937
G1 X115.379 Y109.075 F10800.000
G1 F1200.000
G1 X97.603 Y109.075 E0.55735
G1 X96.579 Y109.084 E0.03211
G1 X96.020 Y109.139 E0.01760
G1 X95.646 Y109.222 E0.01201
G1 X95.681 Y109.140 E0.00279
G1 X95.747 Y108.821 E0.01021
G1 X95.736 Y108.294 E0.01652
G1 X95.668 Y107.992 E0.00970
G1 X95.475 Y107.517 E0.01608
G1 X95.185 Y107.082 E0.01640
G1 X94.817 Y106.714 E0.01634
G1 X94.384 Y106.424 E0.01632
G1 X93.903 Y106.225 E0.01634
G1 X93.392 Y106.123 E0.01632
G1 X92.889 Y106.122 E0.01579
G1 X92.362 Y106.224 E0.01683
G1 X91.879 Y106.424 E0.01639
G1 X91.497 Y106.680 E0.01440
G1 X91.531 Y106.638 E0.00168
G1 X91.853 Y105.761 E0.02928
G1 X91.853 Y104.824 E0.02938
G1 X91.532 Y103.947 E0.02928
G1 X90.932 Y103.231 E0.02928
G1 X90.133 Y102.771 E0.02891
G1 X89.445 Y102.629 E0.02202
G1 X89.048 Y102.454 E0.01361
G1 X88.775 Y102.191 E0.01188
G1 X88.608 Y101.851 E0.01189
G1 X88.567 Y101.474 E0.01189
G1 X88.658 Y101.105 E0.01189
G1 X88.869 Y100.790 E0.01191
G1 X89.176 Y100.566 E0.01191
G1 X89.540 Y100.460 E0.01189
G1 X89.973 Y100.489 E0.01359
G1 X90.646 Y100.684 E0.02197
G1 X91.569 Y100.647 E0.02896
G1 X92.433 Y100.293 E0.02929
G1 X93.125 Y99.662 E0.02935
G1 X93.558 Y98.836 E0.02925
G1 X93.685 Y97.910 E0.02930
G1 X93.484 Y96.996 E0.02933
G1 X92.991 Y96.217 E0.02891
G1 X92.449 Y95.773 E0.02197
G1 X92.179 Y95.433 E0.01361
G1 X92.059 Y95.073 E0.01191
G1 X92.069 Y94.693 E0.01191
G1 X92.208 Y94.341 E0.01188
G1 X92.459 Y94.057 E0.01187
G1 X92.794 Y93.876 E0.01194
G1 X93.168 Y93.820 E0.01187
G1 X93.539 Y93.896 E0.01188
G1 X93.910 Y94.123 E0.01363
G1 X94.417 Y94.609 E0.02202
G1 X95.251 Y95.003 E0.02892
G1 X96.180 Y95.091 E0.02928
G1 X97.085 Y94.856 E0.02932
G1 X97.854 Y94.324 E0.02931
G1 X98.394 Y93.563 E0.02927
G1 X98.643 Y92.663 E0.02927
G1 X98.569 Y91.741 E0.02899
G1 X98.294 Y91.096 E0.02200
G1 X98.213 Y90.670 E0.01358
G1 X98.274 Y90.295 E0.01191
G1 X98.459 Y89.965 E0.01187
G1 X98.746 Y89.717 E0.01190
G1 X99.102 Y89.582 E0.01193
G1 X99.481 Y89.577 E0.01189
G1 X99.838 Y89.702 E0.01185
G1 X100.133 Y89.942 E0.01192
G1 X100.354 Y90.315 E0.01360
G1 X100.577 Y90.979 E0.02197
G1 X101.133 Y91.718 E0.02896
G1 X101.914 Y92.227 E0.02925
