; generated by PrusaSlicer 2.3.1 on 2021-05-17 at 01:28:49 UTC

; 

; external perimeters extrusion width = 0.45mm
; perimeters extrusion width = 0.45mm
; infill extrusion width = 0.45mm
; solid infill extrusion width = 0.45mm
; top infill extrusion width = 0.40mm
; first layer extrusion width = 0.42mm

M73 P0 R21
M73 Q0 S21
M201 X1000 Y1000 Z200 E5000 ; sets maximum accelerations, mm/sec^2
M203 X200 Y200 Z12 E120 ; sets maximum feedrates, mm/sec
M204 P1250 R1250 T1250 ; sets acceleration (P, T) and retract acceleration (R), mm/sec^2
M205 X8.00 Y8.00 Z0.40 E4.50 ; sets the jerk limits, mm/sec
M205 S0 T0 ; sets the minimum extruding and travel feed rate, mm/sec
M107
;TYPE:Custom
M862.3 P "MK3S" ; printer model check
M862.1 P0.4 ; nozzle diameter check
M115 U3.9.3 ; tell printer latest fw version
G90 ; use absolute coordinates
M83 ; extruder relative mode
M104 S215 ; set extruder temp
M140 S60 ; set bed temp
M190 S60 ; wait for bed temp
M109 S215 ; wait for extruder temp
G28 W ; home all without mesh bed level
G80 ; mesh bed leveling
G1 Y-3.0 F1000.0 ; go outside print area
G92 E0.0
G1 X60.0 E9.0 F1000.0 ; intro line
G1 X100.0 E12.5 F1000.0 ; intro line
G92 E0.0
M221 S95

; Don't change E values below. Excessive value can damage the printer.

G21 ; set units to millimeters
G90 ; use absolute coordinates
M83 ; use relative distances for extrusion
M900 K0.05 ; Filament gcode LA 1.5
M900 K30 ; Filament gcode LA 1.0
;LAYER_CHANGE
;Z:0.2
;HEIGHT:0.2
;BEFORE_LAYER_CHANGE
G92 E0.0
;0.2


G1 E-0.80000 F2100.000
G1 Z0.400 F10800.000
;AFTER_LAYER_CHANGE
;0.2
G1 X108.504 Y91.694
G1 Z0.200
G1 E0.80000 F2100.000
M204 S1000
;TYPE:Skirt
;WIDTH:0.42
G1 F1200.000
G1 X109.599 Y90.461 E0.05172
G1 X116.521 Y85.677 E0.26381
G1 X117.641 Y85.195 E0.03823
G1 X118.180 Y85.061 E0.01740
G1 X126.675 Y84.048 E0.26826
G1 X128.137 Y84.260 E0.04630
G1 X135.952 Y87.223 E0.26206
G1 X137.013 Y87.877 E0.03910
G1 X137.433 Y88.246 E0.01752
G1 X142.957 Y94.485 E0.26128
G1 X143.598 Y95.588 E0.04001
G1 X143.769 Y96.052 E0.01550
G1 X145.758 Y104.121 E0.26057
G1 X145.817 Y105.351 E0.03860
G1 X145.749 Y105.916 E0.01787
G1 X143.768 Y113.949 E0.25941
G1 X143.581 Y114.447 E0.01669
G1 X142.957 Y115.516 E0.03880
G1 X137.405 Y121.785 E0.26254
G1 X136.427 Y122.526 E0.03849
G1 X135.946 Y122.779 E0.01704
G1 X128.139 Y125.739 E0.26179
G1 X126.672 Y125.952 E0.04648
G1 X118.138 Y124.933 E0.26947
G1 X116.964 Y124.549 E0.03873
G1 X116.486 Y124.299 E0.01692
G1 X109.678 Y119.598 E0.25940
G1 X109.259 Y119.229 E0.01752
G1 X108.479 Y118.261 E0.03897
G1 X104.615 Y110.898 E0.26070
M73 P1 R21
M73 Q1 S21
G1 X104.437 Y110.442 E0.01538
G1 X104.184 Y109.190 E0.04004
G1 X104.183 Y100.872 E0.26079
G1 X104.399 Y99.704 E0.03724
G1 X104.619 Y99.094 E0.02035
G1 X108.476 Y91.747 E0.26017
; printing object tinker.obj id:0 copy 0
;WIPE_START
G1 F8640.000
G1 X109.599 Y90.461 E-0.39431
G1 X110.902 Y89.560 E-0.36569
;WIPE_END
G1 E-0.04000 F2100.000
G1 Z0.600 F10800.000
G1 X139.477 Y103.818
G1 Z0.200
G1 E0.80000 F2100.000
;TYPE:Perimeter
G1 F1200.000
G1 X141.740 Y104.217 E0.07205
G1 X141.990 Y104.361 E0.00903
G1 X142.176 Y104.583 E0.00909
G1 X142.276 Y104.855 E0.00910
G1 X142.276 Y105.144 E0.00905
G1 X142.176 Y105.417 E0.00910
G1 X141.990 Y105.639 E0.00910
G1 X141.740 Y105.783 E0.00904
G1 X141.375 Y105.848 E0.01163
G1 X140.611 Y105.818 E0.02396
G1 X139.561 Y106.122 E0.03428
G1 X138.663 Y106.777 E0.03486
G1 X138.045 Y107.701 E0.03487
G1 X137.779 Y108.778 E0.03476
G1 X137.897 Y109.884 E0.03488
G1 X138.388 Y110.878 E0.03477
G1 X139.175 Y111.637 E0.03428
G1 X139.868 Y111.966 E0.02405
G1 X140.160 Y112.192 E0.01159
G1 X140.315 Y112.437 E0.00906
G1 X140.376 Y112.720 E0.00910
G1 X140.338 Y113.006 E0.00904
G1 X140.202 Y113.263 E0.00912
G1 X139.988 Y113.459 E0.00909
G1 X139.722 Y113.568 E0.00902
G1 X139.432 Y113.580 E0.00911
G1 X139.079 Y113.467 E0.01162
G1 X138.415 Y113.086 E0.02399
G1 X137.344 Y112.867 E0.03428
G1 X136.246 Y113.030 E0.03481
G1 X135.270 Y113.559 E0.03480
G1 X134.532 Y114.391 E0.03486
G1 X134.125 Y115.425 E0.03485
G1 X134.096 Y116.535 E0.03482
G1 X134.442 Y117.571 E0.03424
G1 X134.900 Y118.183 E0.02395
G1 X135.055 Y118.521 E0.01168
G1 X135.078 Y118.809 E0.00905
G1 X135.001 Y119.089 E0.00910
G1 X134.834 Y119.324 E0.00905
G1 X134.596 Y119.488 E0.00908
G1 X134.314 Y119.562 E0.00912
G1 X134.026 Y119.535 E0.00906
G1 X133.765 Y119.411 E0.00908
G1 X133.506 Y119.148 E0.01157
G1 X133.097 Y118.501 E0.02401
G1 X132.248 Y117.808 E0.03433
G1 X131.199 Y117.443 E0.03484
G1 X130.089 Y117.459 E0.03481
G1 X129.051 Y117.852 E0.03480
G1 X128.210 Y118.577 E0.03481
G1 X127.668 Y119.546 E0.03482
G1 X127.491 Y120.626 E0.03432
G1 X127.613 Y121.381 E0.02399
G1 X127.593 Y121.752 E0.01162
G1 X127.479 Y122.018 E0.00907
G1 X127.282 Y122.229 E0.00906
G1 X127.024 Y122.360 E0.00908
G1 X126.736 Y122.395 E0.00909
G1 X126.454 Y122.329 E0.00907
G1 X126.211 Y122.171 E0.00908
G1 X126.038 Y121.940 E0.00905
G1 X125.930 Y121.586 E0.01161
G1 X125.868 Y120.824 E0.02398
G1 X125.439 Y119.818 E0.03430
G1 X124.680 Y119.005 E0.03485
G1 X123.689 Y118.503 E0.03484
G1 X122.588 Y118.369 E0.03479
G1 X121.504 Y118.621 E0.03487
G1 X120.575 Y119.227 E0.03480
G1 X119.918 Y120.101 E0.03428
G1 X119.675 Y120.826 E0.02398
G1 X119.485 Y121.145 E0.01162
G1 X119.260 Y121.328 E0.00910
G1 X118.989 Y121.423 E0.00902
G1 X118.698 Y121.419 E0.00910
G1 X118.426 Y121.316 E0.00912
G1 X118.208 Y121.127 E0.00905
G1 X118.067 Y120.875 E0.00908
G1 X118.020 Y120.589 E0.00908
G1 X118.089 Y120.226 E0.01157
G1 X118.389 Y119.522 E0.02401
G1 X118.476 Y118.429 E0.03436
G1 X118.181 Y117.360 E0.03478
G1 X117.539 Y116.455 E0.03480
G1 X116.625 Y115.823 E0.03484
G1 X115.550 Y115.544 E0.03485
G1 X114.445 Y115.647 E0.03478
G1 X113.457 Y116.115 E0.03428
G1 X112.903 Y116.645 E0.02402
G1 X112.587 Y116.839 E0.01165
G1 X112.304 Y116.897 E0.00906
G1 X112.018 Y116.855 E0.00905
G1 X111.763 Y116.716 E0.00911
G1 X111.571 Y116.500 E0.00907
G1 X111.465 Y116.231 E0.00905
G1 X111.457 Y115.941 E0.00911
G1 X111.549 Y115.665 E0.00910
G1 X111.780 Y115.376 E0.01160
G1 X112.371 Y114.892 E0.02397
G1 X112.955 Y113.968 E0.03426
G1 X113.194 Y112.882 E0.03487
G1 X113.043 Y111.781 E0.03484
G1 X112.528 Y110.799 E0.03475
G1 X111.706 Y110.050 E0.03489
G1 X110.679 Y109.629 E0.03481
G1 X109.585 Y109.585 E0.03431
G1 X108.851 Y109.797 E0.02397
G1 X108.481 Y109.822 E0.01161
G1 X108.204 Y109.742 E0.00906
G1 X107.970 Y109.571 E0.00909
G1 X107.809 Y109.330 E0.00909
G1 X107.739 Y109.048 E0.00909
G1 X107.770 Y108.761 E0.00907
G1 X107.898 Y108.500 E0.00909
G1 X108.106 Y108.300 E0.00906
G1 X108.445 Y108.151 E0.01160
G1 X109.195 Y107.996 E0.02403
G1 X110.142 Y107.450 E0.03428
G1 X110.855 Y106.599 E0.03479
G1 X111.236 Y105.557 E0.03480
G1 X111.236 Y104.443 E0.03493
G1 X110.855 Y103.401 E0.03480
G1 X110.142 Y102.550 E0.03480
G1 X109.195 Y102.004 E0.03427
G1 X108.445 Y101.849 E0.02403
G1 X108.106 Y101.700 E0.01160
G1 X107.898 Y101.499 E0.00906
G1 X107.770 Y101.239 E0.00908
G1 X107.739 Y100.952 E0.00907
G1 X107.808 Y100.670 E0.00908
G1 X107.970 Y100.430 E0.00910
G1 X108.204 Y100.258 E0.00910
G1 X108.482 Y100.178 E0.00907
G1 X108.850 Y100.203 E0.01158
G1 X109.585 Y100.415 E0.02398
G1 X110.679 Y100.371 E0.03432
G1 X111.706 Y99.950 E0.03481
G1 X112.529 Y99.201 E0.03489
G1 X113.043 Y98.219 E0.03475
G1 X113.194 Y97.118 E0.03483
G1 X112.955 Y96.032 E0.03487
G1 X112.371 Y95.109 E0.03425
G1 X111.780 Y94.624 E0.02398
G1 X111.549 Y94.334 E0.01161
G1 X111.457 Y94.059 E0.00909
G1 X111.465 Y93.769 E0.00910
G1 X111.571 Y93.500 E0.00906
G1 X111.762 Y93.284 E0.00905
G1 X112.018 Y93.145 E0.00913
G1 X112.304 Y93.103 E0.00905
G1 X112.587 Y93.161 E0.00906
G1 X112.903 Y93.355 E0.01164
G1 X113.457 Y93.885 E0.02403
G1 X114.445 Y94.352 E0.03427
G1 X115.550 Y94.457 E0.03479
G1 X116.625 Y94.177 E0.03485
G1 X117.539 Y93.545 E0.03484
G1 X118.181 Y92.640 E0.03478
G1 X118.476 Y91.571 E0.03478
G1 X118.389 Y90.478 E0.03436
G1 X118.089 Y89.774 E0.02401
G1 X118.020 Y89.411 E0.01158
G1 X118.067 Y89.125 E0.00909
G1 X118.208 Y88.873 E0.00906
G1 X118.427 Y88.683 E0.00908
G1 X118.699 Y88.581 E0.00910
G1 X118.988 Y88.577 E0.00908
G1 X119.260 Y88.672 E0.00903
G1 X119.485 Y88.855 E0.00911
G1 X119.675 Y89.174 E0.01161
G1 X119.918 Y89.898 E0.02397
G1 X120.576 Y90.773 E0.03431
G1 X121.504 Y91.379 E0.03477
G1 X122.588 Y91.631 E0.03488
G1 X123.689 Y91.497 E0.03479
G1 X124.680 Y90.995 E0.03482
G1 X125.439 Y90.182 E0.03487
G1 X125.868 Y89.176 E0.03431
G1 X125.930 Y88.414 E0.02396
G1 X126.038 Y88.059 E0.01162
G1 X126.211 Y87.829 E0.00904
G1 X126.454 Y87.671 E0.00907
G1 X126.737 Y87.605 E0.00913
G1 X127.023 Y87.640 E0.00902
G1 X127.282 Y87.771 E0.00909
G1 X127.480 Y87.982 E0.00909
G1 X127.593 Y88.248 E0.00906
G1 X127.613 Y88.619 E0.01163
G1 X127.491 Y89.374 E0.02399
G1 X127.668 Y90.454 E0.03432
G1 X128.210 Y91.423 E0.03480
G1 X129.051 Y92.148 E0.03482
G1 X130.089 Y92.541 E0.03480
G1 X131.199 Y92.557 E0.03482
G1 X132.248 Y92.191 E0.03482
G1 X133.096 Y91.500 E0.03432
G1 X133.506 Y90.852 E0.02402
G1 X133.765 Y90.589 E0.01157
G1 X134.027 Y90.465 E0.00908
G1 X134.314 Y90.438 E0.00906
G1 X134.595 Y90.512 E0.00910
G1 X134.835 Y90.676 E0.00912
G1 X135.001 Y90.911 E0.00904
G1 X135.078 Y91.191 E0.00909
G1 X135.055 Y91.479 E0.00907
G1 X134.900 Y91.817 E0.01167
G1 X134.443 Y92.429 E0.02394
G1 X134.096 Y93.464 E0.03424
G1 X134.125 Y94.575 E0.03483
G1 X134.532 Y95.609 E0.03485
G1 X135.270 Y96.441 E0.03486
G1 X136.246 Y96.969 E0.03480
G1 X137.344 Y97.133 E0.03479
G1 X138.415 Y96.914 E0.03428
G1 X139.079 Y96.533 E0.02400
G1 X139.432 Y96.420 E0.01162
G1 X139.721 Y96.432 E0.00908
G1 X139.988 Y96.541 E0.00905
G1 X140.202 Y96.737 E0.00909
G1 X140.338 Y96.994 E0.00912
G1 X140.376 Y97.280 E0.00905
G1 X140.315 Y97.563 E0.00909
G1 X140.160 Y97.807 E0.00905
G1 X139.868 Y98.033 E0.01160
G1 X139.175 Y98.363 E0.02407
G1 X138.389 Y99.121 E0.03423
G1 X137.897 Y100.116 E0.03481
G1 X137.779 Y101.222 E0.03487
G1 X138.046 Y102.300 E0.03482
G1 X138.663 Y103.223 E0.03479
G1 X139.429 Y103.782 E0.02975
G1 X139.629 Y103.462 F10800.000
G1 F1200.000
G1 X141.871 Y103.857 E0.07138
G1 X142.236 Y104.067 E0.01321
G1 X142.508 Y104.391 E0.01326
G1 X142.653 Y104.789 E0.01326
G1 X142.653 Y105.211 E0.01324
G1 X142.508 Y105.608 E0.01326
G1 X142.236 Y105.932 E0.01326
G1 X141.871 Y106.143 E0.01322
G1 X141.400 Y106.226 E0.01498
G1 X140.657 Y106.197 E0.02331
G1 X139.729 Y106.466 E0.03029
G1 X138.939 Y107.042 E0.03067
G1 X138.395 Y107.856 E0.03069
G1 X138.161 Y108.803 E0.03060
G1 X138.265 Y109.777 E0.03070
G1 X138.697 Y110.652 E0.03061
G1 X139.393 Y111.323 E0.03029
G1 X140.066 Y111.643 E0.02339
G1 X140.443 Y111.935 E0.01494
G1 X140.669 Y112.291 E0.01323
G1 X140.759 Y112.705 E0.01326
G1 X140.703 Y113.122 E0.01322
G1 X140.505 Y113.497 E0.01328
G1 X140.193 Y113.783 E0.01326
G1 X139.804 Y113.942 E0.01320
G1 X139.380 Y113.959 E0.01328
G1 X138.926 Y113.814 E0.01497
G1 X138.280 Y113.443 E0.02335
G1 X137.334 Y113.249 E0.03028
G1 X136.367 Y113.393 E0.03063
G1 X135.508 Y113.859 E0.03064
G1 X134.859 Y114.591 E0.03069
G1 X134.500 Y115.501 E0.03067
G1 X134.475 Y116.479 E0.03066
G1 X134.781 Y117.393 E0.03025
G1 X135.226 Y117.989 E0.02331
G1 X135.425 Y118.424 E0.01501
G1 X135.460 Y118.844 E0.01322
G1 X135.347 Y119.253 E0.01327
G1 X135.103 Y119.597 E0.01323
G1 X134.755 Y119.836 E0.01325
G1 X134.345 Y119.944 E0.01327
G1 X133.925 Y119.904 E0.01324
G1 X133.543 Y119.723 E0.01325
G1 X133.209 Y119.384 E0.01493
G1 X132.811 Y118.754 E0.02335
G1 X132.061 Y118.143 E0.03033
G1 X131.138 Y117.821 E0.03067
G1 X130.160 Y117.835 E0.03064
G1 X129.247 Y118.181 E0.03063
G1 X128.506 Y118.819 E0.03064
G1 X128.029 Y119.672 E0.03066
G1 X127.873 Y120.626 E0.03032
G1 X127.991 Y121.361 E0.02333
G1 X127.966 Y121.838 E0.01498
G1 X127.800 Y122.227 E0.01325
G1 X127.512 Y122.535 E0.01323
G1 X127.135 Y122.726 E0.01324
G1 X126.715 Y122.777 E0.01326
G1 X126.304 Y122.681 E0.01323
G1 X125.950 Y122.451 E0.01325
G1 X125.696 Y122.114 E0.01323
G1 X125.558 Y121.657 E0.01496
G1 X125.497 Y120.916 E0.02333
G1 X125.118 Y120.027 E0.03031
G1 X124.450 Y119.311 E0.03068
G1 X123.578 Y118.869 E0.03066
G1 X122.608 Y118.751 E0.03062
G1 X121.655 Y118.973 E0.03070
G1 X120.837 Y119.507 E0.03063
G1 X120.256 Y120.279 E0.03029
G1 X120.019 Y120.984 E0.02332
G1 X119.775 Y121.394 E0.01497
G1 X119.447 Y121.662 E0.01327
G1 X119.050 Y121.801 E0.01320
G1 X118.627 Y121.795 E0.01326
G1 X118.230 Y121.645 E0.01330
G1 X117.911 Y121.369 E0.01322
G1 X117.705 Y121.001 E0.01324
G1 X117.638 Y120.584 E0.01325
G1 X117.726 Y120.116 E0.01493
G1 X118.018 Y119.430 E0.02336
M73 Q2 S21
G1 X118.095 Y118.466 E0.03034
G1 X117.835 Y117.524 E0.03062
G1 X117.270 Y116.727 E0.03064
G1 X116.466 Y116.171 E0.03065
G1 X115.519 Y115.925 E0.03067
G1 X114.547 Y116.017 E0.03063
G1 X113.673 Y116.430 E0.03029
M73 P2 R21
G1 X113.135 Y116.945 E0.02336
G1 X112.728 Y117.195 E0.01499
G1 X112.314 Y117.280 E0.01323
G1 X111.897 Y117.218 E0.01322
G1 X111.525 Y117.016 E0.01327
G1 X111.244 Y116.700 E0.01325
G1 X111.090 Y116.308 E0.01323
G1 X111.079 Y115.884 E0.01328
G1 X111.213 Y115.483 E0.01327
G1 X111.509 Y115.109 E0.01496
G1 X112.085 Y114.638 E0.02332
G1 X112.601 Y113.822 E0.03027
G1 X112.811 Y112.867 E0.03069
G1 X112.678 Y111.897 E0.03067
G1 X112.225 Y111.033 E0.03059
G1 X111.502 Y110.373 E0.03071
G1 X110.597 Y110.003 E0.03064
G1 X109.631 Y109.964 E0.03032
G1 X108.917 Y110.170 E0.02332
G1 X108.441 Y110.203 E0.01496
G1 X108.035 Y110.085 E0.01324
G1 X107.694 Y109.836 E0.01326
G1 X107.458 Y109.485 E0.01325
G1 X107.357 Y109.074 E0.01326
G1 X107.402 Y108.654 E0.01324
G1 X107.589 Y108.275 E0.01326
G1 X107.893 Y107.982 E0.01323
G1 X108.330 Y107.790 E0.01496
G1 X109.060 Y107.639 E0.02338
G1 X109.896 Y107.157 E0.03028
G1 X110.523 Y106.408 E0.03063
G1 X110.859 Y105.490 E0.03064
G1 X110.859 Y104.510 E0.03074
G1 X110.523 Y103.592 E0.03063
G1 X109.896 Y102.843 E0.03064
G1 X109.060 Y102.361 E0.03027
G1 X108.330 Y102.210 E0.02338
G1 X107.893 Y102.018 E0.01496
G1 X107.589 Y101.725 E0.01323
G1 X107.402 Y101.346 E0.01325
G1 X107.357 Y100.926 E0.01325
G1 X107.458 Y100.516 E0.01324
G1 X107.694 Y100.164 E0.01326
G1 X108.035 Y99.914 E0.01327
G1 X108.441 Y99.797 E0.01325
G1 X108.916 Y99.829 E0.01494
G1 X109.631 Y100.036 E0.02333
G1 X110.597 Y99.997 E0.03032
G1 X111.502 Y99.627 E0.03064
G1 X112.225 Y98.967 E0.03071
G1 X112.678 Y98.102 E0.03060
G1 X112.811 Y97.133 E0.03066
G1 X112.601 Y96.177 E0.03069
G1 X112.085 Y95.362 E0.03026
G1 X111.510 Y94.890 E0.02333
G1 X111.213 Y94.517 E0.01496
G1 X111.079 Y94.115 E0.01326
G1 X111.090 Y93.693 E0.01326
G1 X111.244 Y93.300 E0.01324
G1 X111.524 Y92.984 E0.01323
G1 X111.897 Y92.782 E0.01329
G1 X112.314 Y92.720 E0.01322
G1 X112.728 Y92.805 E0.01323
G1 X113.135 Y93.055 E0.01499
G1 X113.673 Y93.570 E0.02337
G1 X114.546 Y93.983 E0.03027
G1 X115.519 Y94.075 E0.03063
G1 X116.466 Y93.829 E0.03067
G1 X117.270 Y93.272 E0.03067
G1 X117.835 Y92.476 E0.03062
G1 X118.095 Y91.534 E0.03062
G1 X118.018 Y90.570 E0.03035
G1 X117.726 Y89.884 E0.02336
G1 X117.638 Y89.416 E0.01494
G1 X117.705 Y88.999 E0.01326
G1 X117.911 Y88.631 E0.01322
G1 X118.231 Y88.354 E0.01325
G1 X118.627 Y88.205 E0.01328
G1 X119.050 Y88.199 E0.01325
G1 X119.447 Y88.337 E0.01320
G1 X119.775 Y88.606 E0.01328
G1 X120.019 Y89.015 E0.01496
G1 X120.256 Y89.721 E0.02332
G1 X120.837 Y90.493 E0.03032
G1 X121.655 Y91.027 E0.03061
G1 X122.608 Y91.249 E0.03070
G1 X123.578 Y91.131 E0.03063
G1 X124.450 Y90.689 E0.03065
G1 X125.118 Y89.973 E0.03070
G1 X125.497 Y89.084 E0.03031
G1 X125.558 Y88.343 E0.02331
G1 X125.696 Y87.886 E0.01497
G1 X125.950 Y87.549 E0.01323
G1 X126.304 Y87.319 E0.01324
G1 X126.717 Y87.223 E0.01328
G1 X127.134 Y87.273 E0.01320
G1 X127.511 Y87.465 E0.01326
G1 X127.800 Y87.773 E0.01326
G1 X127.966 Y88.162 E0.01324
G1 X127.991 Y88.639 E0.01499
G1 X127.873 Y89.374 E0.02334
G1 X128.029 Y90.328 E0.03032
G1 X128.506 Y91.181 E0.03064
G1 X129.246 Y91.819 E0.03064
G1 X130.160 Y92.165 E0.03064
G1 X131.138 Y92.179 E0.03065
G1 X132.061 Y91.857 E0.03066
G1 X132.811 Y91.246 E0.03031
G1 X133.209 Y90.616 E0.02337
G1 X133.543 Y90.277 E0.01493
G1 X133.925 Y90.096 E0.01325
G1 X134.345 Y90.056 E0.01324
G1 X134.754 Y90.164 E0.01326
G1 X135.104 Y90.404 E0.01329
