; generated by PrusaSlicer 2.3.1 on 2021-05-18 at 23:02:45 UTC

; 

; external perimeters extrusion width = 0.45mm
; perimeters extrusion width = 0.45mm
; infill extrusion width = 0.45mm
; solid infill extrusion width = 0.45mm
; top infill extrusion width = 0.40mm
; first layer extrusion width = 0.42mm

M73 P0 R21
M73 Q0 S21
M201 X1000 Y1000 Z200 E5000 ; sets maximum accelerations, mm/sec^2
M203 X200 Y200 Z12 E120 ; sets maximum feedrates, mm/sec
M204 P1250 R1250 T1250 ; sets acceleration (P, T) and retract acceleration (R), mm/sec^2
M205 X8.00 Y8.00 Z0.40 E4.50 ; sets the jerk limits, mm/sec
M205 S0 T0 ; sets the minimum extruding and travel feed rate, mm/sec
M107
;TYPE:Custom
M862.3 P "MK3S" ; printer model check
M862.1 P0.4 ; nozzle diameter check
M115 U3.9.3 ; tell printer latest fw version
G90 ; use absolute coordinates
M83 ; extruder relative mode
M104 S215 ; set extruder temp
M140 S60 ; set bed temp
M190 S60 ; wait for bed temp
M109 S215 ; wait for extruder temp
G28 W ; home all without mesh bed level
G80 ; mesh bed leveling
G1 Y-3.0 F1000.0 ; go outside print area
G92 E0.0
G1 X60.0 E9.0 F1000.0 ; intro line
G1 X100.0 E12.5 F1000.0 ; intro line
G92 E0.0
M221 S95

; Don't change E values below. Excessive value can damage the printer.

G21 ; set units to millimeters
G90 ; use absolute coordinates
M83 ; use relative distances for extrusion
M900 K0.05 ; Filament gcode LA 1.5
M900 K30 ; Filament gcode LA 1.0
;LAYER_CHANGE
;Z:0.2
;HEIGHT:0.2
;BEFORE_LAYER_CHANGE
G92 E0.0
;0.2


G1 E-0.80000 F2100.000
G1 Z0.400 F10800.000
;AFTER_LAYER_CHANGE
;0.2
G1 X109.075 Y92.242
G1 Z0.200
G1 E0.80000 F2100.000
M204 S1000
;TYPE:Skirt
;WIDTH:0.42
G1 F1200.000
G1 X109.782 Y91.363 E0.03539
G1 X110.233 Y90.939 E0.01941
G1 X116.761 Y86.430 E0.24877
G1 X117.914 Y85.925 E0.03946
G1 X118.530 Y85.773 E0.01988
G1 X126.573 Y84.817 E0.25396
G1 X128.104 Y85.041 E0.04851
G1 X135.468 Y87.833 E0.24694
G1 X136.569 Y88.502 E0.04040
G1 X137.052 Y88.925 E0.02014
G1 X142.255 Y94.802 E0.24609
G1 X142.924 Y95.944 E0.04151
G1 X143.117 Y96.470 E0.01758
G1 X144.988 Y104.059 E0.24507
G1 X145.056 Y105.329 E0.03987
G1 X144.976 Y105.988 E0.02082
G1 X143.116 Y113.533 E0.24362
G1 X142.903 Y114.099 E0.01899
G1 X142.253 Y115.200 E0.04009
G1 X137.021 Y121.108 E0.24742
G1 X136.014 Y121.879 E0.03977
G1 X135.464 Y122.169 E0.01950
G1 X128.105 Y124.958 E0.24674
G1 X126.568 Y125.183 E0.04873
G1 X118.483 Y124.221 E0.25528
G1 X117.268 Y123.830 E0.04000
G1 X116.700 Y123.529 E0.02017
G1 X110.306 Y119.115 E0.24363
G1 X109.844 Y118.705 E0.01937
G1 X109.039 Y117.695 E0.04048
G1 X105.407 Y110.772 E0.24511
M73 Q1 S21
G1 X105.202 Y110.250 E0.01758
G1 X104.945 Y108.950 E0.04157
G1 X104.944 Y101.127 E0.24527
M73 P1 R21
G1 X105.023 Y100.472 E0.02068
G1 X105.410 Y99.221 E0.04108
G1 X109.047 Y92.296 E0.24525
G1 X109.380 Y92.470 F10800.000
G1 F1200.000
G1 X110.466 Y91.235 E0.05158
G1 X116.965 Y86.747 E0.24763
G1 X118.043 Y86.280 E0.03686
G1 X118.578 Y86.147 E0.01728
G1 X126.572 Y85.194 E0.25241
G1 X127.991 Y85.401 E0.04497
G1 X135.329 Y88.183 E0.24606
G1 X136.355 Y88.812 E0.03775
G1 X136.775 Y89.181 E0.01752
G1 X141.964 Y95.042 E0.24543
G1 X142.584 Y96.107 E0.03866
G1 X142.753 Y96.568 E0.01538
G1 X144.621 Y104.146 E0.24472
G1 X144.679 Y105.329 E0.03714
G1 X144.611 Y105.895 E0.01787
G1 X142.752 Y113.437 E0.24355
G1 X142.565 Y113.931 E0.01657
G1 X141.961 Y114.961 E0.03745
G1 X136.747 Y120.849 E0.24657
G1 X135.805 Y121.566 E0.03714
G1 X135.327 Y121.818 E0.01692
G1 X127.989 Y124.599 E0.24606
G1 X126.569 Y124.806 E0.04501
G1 X118.541 Y123.848 E0.25350
G1 X117.407 Y123.480 E0.03738
G1 X116.929 Y123.229 E0.01692
G1 X110.540 Y118.818 E0.24342
G1 X110.121 Y118.449 E0.01752
G1 X109.370 Y117.514 E0.03759
G1 X105.743 Y110.602 E0.24476
G1 X105.564 Y110.145 E0.01538
G1 X105.322 Y108.935 E0.03869
G1 X105.321 Y101.127 E0.24482
G1 X105.527 Y99.996 E0.03604
G1 X105.746 Y99.392 E0.02016
G1 X109.352 Y92.524 E0.24322
; printing object iCode Coin Souvenir V3-3.stl id:0 copy 0
;WIPE_START
G1 F8640.000
G1 X110.466 Y91.235 E-0.39330
G1 X111.773 Y90.333 E-0.36670
;WIPE_END
G1 E-0.04000 F2100.000
G1 Z0.600 F10800.000
G1 X135.712 Y101.595
G1 Z0.200
G1 E0.80000 F2100.000
;TYPE:Perimeter
G1 F1200.000
G1 X114.288 Y101.595 E0.67174
G1 X114.433 Y99.647 E0.06125
G1 X114.606 Y98.876 E0.02477
G1 X114.888 Y98.131 E0.02499
G1 X115.273 Y97.421 E0.02533
G1 X115.751 Y96.752 E0.02579
G1 X116.315 Y96.130 E0.02632
G1 X116.957 Y95.558 E0.02695
G1 X117.669 Y95.039 E0.02764
G1 X118.443 Y94.575 E0.02831
G1 X119.274 Y94.167 E0.02900
G1 X120.153 Y93.819 E0.02964
G1 X121.073 Y93.532 E0.03021
G1 X122.025 Y93.307 E0.03070
G1 X123.003 Y93.144 E0.03107
G1 X123.997 Y93.047 E0.03133
G1 X125.000 Y93.014 E0.03145
G1 X126.003 Y93.047 E0.03146
G1 X126.997 Y93.144 E0.03133
G1 X127.975 Y93.307 E0.03107
G1 X128.928 Y93.532 E0.03070
G1 X129.847 Y93.819 E0.03021
G1 X130.726 Y94.167 E0.02963
G1 X131.557 Y94.575 E0.02901
G1 X132.332 Y95.039 E0.02832
G1 X133.044 Y95.558 E0.02764
G1 X133.685 Y96.130 E0.02695
G1 X134.249 Y96.752 E0.02633
G1 X134.728 Y97.421 E0.02578
G1 X135.112 Y98.131 E0.02531
G1 X135.395 Y98.876 E0.02499
G1 X135.568 Y99.647 E0.02478
G1 X135.708 Y101.536 E0.05937
G1 X135.306 Y101.218 F10800.000
G1 F1200.000
G1 X114.694 Y101.218 E0.64627
G1 X114.807 Y99.703 E0.04765
G1 X114.968 Y98.985 E0.02306
G1 X115.232 Y98.288 E0.02336
G1 X115.593 Y97.621 E0.02379
G1 X116.045 Y96.989 E0.02436
G1 X116.581 Y96.398 E0.02501
G1 X117.194 Y95.852 E0.02574
G1 X117.877 Y95.353 E0.02652
G1 X118.624 Y94.906 E0.02728
G1 X119.427 Y94.512 E0.02804
G1 X120.279 Y94.175 E0.02874
G1 X121.172 Y93.896 E0.02935
G1 X122.100 Y93.676 E0.02988
G1 X123.052 Y93.519 E0.03027
G1 X124.022 Y93.424 E0.03055
G1 X125.000 Y93.392 E0.03068
G1 X125.978 Y93.424 E0.03069
G1 X126.948 Y93.519 E0.03055
M73 Q2 S21
G1 X127.901 Y93.676 E0.03027
G1 X128.828 Y93.896 E0.02988
G1 X129.722 Y94.175 E0.02935
G1 X130.573 Y94.512 E0.02873
G1 X131.377 Y94.906 E0.02805
G1 X132.123 Y95.353 E0.02729
G1 X132.807 Y95.852 E0.02652
G1 X133.419 Y96.398 E0.02574
M73 P2 R21
G1 X133.955 Y96.989 E0.02501
G1 X134.407 Y97.621 E0.02435
G1 X134.768 Y98.288 E0.02378
G1 X135.033 Y98.985 E0.02336
G1 X135.194 Y99.703 E0.02307
G1 X135.302 Y101.158 E0.04577
G1 X134.900 Y100.841 F10800.000
;TYPE:External perimeter
G1 F1200.000
G1 X115.100 Y100.841 E0.62081
M73 P2 R20
G1 X115.181 Y99.758 E0.03405
G1 X115.330 Y99.093 E0.02136
G1 X115.575 Y98.445 E0.02173
G1 X115.913 Y97.821 E0.02226
G1 X116.339 Y97.226 E0.02294
G1 X116.847 Y96.666 E0.02370
G1 X117.431 Y96.146 E0.02454
G1 X118.086 Y95.668 E0.02541
G1 X118.804 Y95.238 E0.02625
G1 X119.579 Y94.858 E0.02708
G1 X120.405 Y94.531 E0.02783
G1 X121.272 Y94.260 E0.02850
G1 X122.174 Y94.046 E0.02906
G1 X123.101 Y93.893 E0.02948
G1 X124.047 Y93.800 E0.02977
G1 X125.000 Y93.769 E0.02991
G1 X125.954 Y93.800 E0.02992
G1 X126.899 Y93.893 E0.02977
G1 X127.826 Y94.046 E0.02948
G1 X128.728 Y94.260 E0.02906
G1 X129.596 Y94.531 E0.02850
G1 X130.421 Y94.858 E0.02782
G1 X131.196 Y95.238 E0.02709
G1 X131.915 Y95.668 E0.02625
G1 X132.569 Y96.146 E0.02541
G1 X133.154 Y96.666 E0.02454
G1 X133.661 Y97.226 E0.02370
G1 X134.087 Y97.821 E0.02293
G1 X134.425 Y98.445 E0.02225
G1 X134.670 Y99.093 E0.02173
G1 X134.820 Y99.758 E0.02136
G1 X134.896 Y100.781 E0.03217
G1 X134.917 Y101.241 F10800.000
;WIPE_START
G1 F8640.000
G1 X131.604 Y100.791 E-0.76000
;WIPE_END
G1 E-0.04000 F2100.000
M73 Q2 S20
G1 Z0.600 F10800.000
G1 X135.712 Y108.405
G1 Z0.200
G1 E0.80000 F2100.000
;TYPE:Perimeter
G1 F1200.000
G1 X114.288 Y108.405 E0.67174
G1 X114.433 Y110.353 E0.06127
G1 X114.606 Y111.124 E0.02476
G1 X114.888 Y111.869 E0.02498
G1 X115.273 Y112.580 E0.02534
G1 X115.751 Y113.248 E0.02577
G1 X116.315 Y113.870 E0.02632
G1 X116.957 Y114.442 E0.02696
G1 X117.669 Y114.961 E0.02762
G1 X118.443 Y115.426 E0.02832
G1 X119.274 Y115.833 E0.02900
G1 X120.153 Y116.181 E0.02964
G1 X121.073 Y116.469 E0.03022
G1 X122.026 Y116.694 E0.03070
G1 X123.003 Y116.856 E0.03106
G1 X123.997 Y116.953 E0.03133
G1 X125.000 Y116.986 E0.03145
G1 X126.003 Y116.953 E0.03146
G1 X126.997 Y116.856 E0.03133
G1 X127.975 Y116.694 E0.03106
G1 X128.928 Y116.469 E0.03070
G1 X129.848 Y116.181 E0.03022
G1 X130.726 Y115.833 E0.02963
G1 X131.557 Y115.426 E0.02901
G1 X132.332 Y114.961 E0.02832
G1 X133.017 Y114.462 E0.02658
G1 X133.487 Y114.884 E0.01982
G1 X133.462 Y115.834 E0.02980
G1 X133.795 Y116.829 E0.03288
G1 X134.227 Y117.406 E0.02260
G1 X134.364 Y117.705 E0.01032
G1 X134.384 Y117.950 E0.00771
G1 X134.318 Y118.188 E0.00774
G1 X134.176 Y118.388 E0.00770
G1 X133.973 Y118.528 E0.00774
G1 X133.734 Y118.591 E0.00776
G1 X133.489 Y118.568 E0.00769
G1 X133.266 Y118.462 E0.00774
G1 X133.038 Y118.230 E0.01022
G1 X132.651 Y117.619 E0.02265
G1 X131.836 Y116.955 E0.03297
G1 X130.828 Y116.603 E0.03348
G1 X129.761 Y116.618 E0.03346
G1 X128.763 Y116.996 E0.03345
G1 X127.955 Y117.693 E0.03346
G1 X127.434 Y118.624 E0.03345
G1 X127.264 Y119.662 E0.03297
G1 X127.379 Y120.374 E0.02264
G1 X127.362 Y120.701 E0.01027
G1 X127.265 Y120.928 E0.00773
G1 X127.098 Y121.108 E0.00770
G1 X126.878 Y121.219 E0.00772
G1 X126.633 Y121.249 E0.00773
G1 X126.393 Y121.193 E0.00773
G1 X126.186 Y121.058 E0.00774
G1 X126.039 Y120.862 E0.00769
G1 X125.944 Y120.549 E0.01025
G1 X125.885 Y119.830 E0.02263
G1 X125.473 Y118.864 E0.03295
G1 X124.744 Y118.083 E0.03349
G1 X123.792 Y117.600 E0.03347
G1 X122.732 Y117.471 E0.03346
G1 X121.691 Y117.714 E0.03351
G1 X120.798 Y118.296 E0.03344
G1 X120.168 Y119.135 E0.03291
G1 X119.938 Y119.819 E0.02262
G1 X119.770 Y120.101 E0.01028
G1 X119.579 Y120.257 E0.00776
G1 X119.348 Y120.338 E0.00766
G1 X119.101 Y120.334 E0.00773
G1 X118.869 Y120.247 E0.00778
G1 X118.684 Y120.086 E0.00769
G1 X118.563 Y119.871 E0.00772
G1 X118.524 Y119.628 E0.00773
G1 X118.585 Y119.308 E0.01022
G1 X118.868 Y118.643 E0.02265
G1 X118.951 Y117.594 E0.03299
G1 X118.668 Y116.566 E0.03344
G1 X118.051 Y115.696 E0.03344
G1 X117.173 Y115.089 E0.03347
G1 X116.139 Y114.820 E0.03347
G1 X115.077 Y114.920 E0.03346
G1 X114.128 Y115.369 E0.03292
G1 X113.606 Y115.869 E0.02267
G1 X113.326 Y116.041 E0.01028
G1 X113.085 Y116.090 E0.00771
G1 X112.843 Y116.054 E0.00769
G1 X112.625 Y115.936 E0.00776
G1 X112.462 Y115.752 E0.00773
G1 X112.372 Y115.524 E0.00769
G1 X112.365 Y115.276 E0.00776
G1 X112.443 Y115.042 E0.00774
G1 X112.647 Y114.786 E0.01025
G1 X113.205 Y114.329 E0.02261
G1 X113.766 Y113.442 E0.03290
G1 X113.995 Y112.398 E0.03351
G1 X113.850 Y111.340 E0.03349
G1 X113.356 Y110.397 E0.03339
G1 X112.565 Y109.676 E0.03353
G1 X111.578 Y109.272 E0.03345
G1 X110.528 Y109.230 E0.03295
G1 X109.835 Y109.430 E0.02262
G1 X109.509 Y109.452 E0.01024
G1 X109.272 Y109.384 E0.00771
G1 X109.074 Y109.238 E0.00773
G1 X108.936 Y109.033 E0.00773
G1 X108.877 Y108.794 E0.00774
G1 X108.903 Y108.549 E0.00771
G1 X109.012 Y108.327 E0.00774
G1 X109.189 Y108.157 E0.00770
G1 X109.488 Y108.026 E0.01025
G1 X110.197 Y107.879 E0.02267
G1 X111.106 Y107.355 E0.03292
G1 X111.791 Y106.537 E0.03345
G1 X112.157 Y105.536 E0.03343
G1 X112.157 Y104.464 E0.03359
G1 X111.791 Y103.463 E0.03342
G1 X111.106 Y102.645 E0.03345
G1 X110.197 Y102.121 E0.03292
G1 X109.488 Y101.974 E0.02267
G1 X109.189 Y101.843 E0.01026
G1 X109.012 Y101.673 E0.00769
G1 X108.903 Y101.451 E0.00773
G1 X108.877 Y101.206 E0.00772
G1 X108.936 Y100.967 E0.00771
G1 X109.074 Y100.762 E0.00776
G1 X109.272 Y100.616 E0.00773
G1 X109.509 Y100.548 E0.00772
G1 X109.835 Y100.570 E0.01024
G1 X110.528 Y100.771 E0.02263
G1 X111.578 Y100.728 E0.03295
G1 X112.565 Y100.324 E0.03346
G1 X113.356 Y99.603 E0.03353
G1 X113.850 Y98.660 E0.03339
G1 X113.995 Y97.601 E0.03349
G1 X113.766 Y96.558 E0.03351
G1 X113.205 Y95.671 E0.03290
G1 X112.647 Y95.214 E0.02261
G1 X112.443 Y94.958 E0.01025
G1 X112.365 Y94.723 E0.00775
G1 X112.372 Y94.476 E0.00775
G1 X112.462 Y94.248 E0.00770
G1 X112.625 Y94.064 E0.00769
G1 X112.843 Y93.946 E0.00778
G1 X113.085 Y93.910 E0.00769
G1 X113.326 Y93.959 E0.00771
G1 X113.606 Y94.131 E0.01028
G1 X114.128 Y94.631 E0.02267
G1 X115.077 Y95.080 E0.03293
G1 X116.139 Y95.180 E0.03345
G1 X117.173 Y94.911 E0.03347
G1 X118.051 Y94.303 E0.03349
G1 X118.668 Y93.434 E0.03343
G1 X118.951 Y92.406 E0.03343
G1 X118.868 Y91.357 E0.03300
G1 X118.585 Y90.692 E0.02265
G1 X118.524 Y90.372 E0.01022
G1 X118.563 Y90.129 E0.00774
G1 X118.684 Y89.914 E0.00771
G1 X118.870 Y89.753 E0.00771
G1 X119.101 Y89.666 E0.00777
G1 X119.348 Y89.662 E0.00773
G1 X119.579 Y89.743 E0.00766
G1 X119.770 Y89.899 E0.00776
G1 X119.938 Y90.181 E0.01028
G1 X120.168 Y90.864 E0.02260
G1 X120.799 Y91.704 E0.03294
G1 X121.691 Y92.286 E0.03342
G1 X122.732 Y92.529 E0.03351
G1 X123.792 Y92.400 E0.03346
G1 X124.744 Y91.917 E0.03347
G1 X125.473 Y91.136 E0.03350
G1 X125.885 Y90.170 E0.03294
G1 X125.944 Y89.451 E0.02261
G1 X126.039 Y89.138 E0.01027
G1 X126.186 Y88.942 E0.00769
G1 X126.393 Y88.807 E0.00773
G1 X126.634 Y88.751 E0.00777
G1 X126.877 Y88.781 E0.00766
G1 X127.097 Y88.892 E0.00776
G1 X127.265 Y89.072 E0.00771
G1 X127.362 Y89.298 E0.00772
G1 X127.379 Y89.626 E0.01027
G1 X127.264 Y90.338 E0.02264
G1 X127.434 Y91.376 E0.03296
G1 X127.955 Y92.307 E0.03345
G1 X128.763 Y93.004 E0.03346
G1 X129.761 Y93.382 E0.03345
G1 X130.828 Y93.397 E0.03346
G1 X131.836 Y93.045 E0.03347
G1 X132.651 Y92.381 E0.03296
G1 X133.038 Y91.770 E0.02266
G1 X133.266 Y91.538 E0.01022
G1 X133.489 Y91.432 E0.00774
G1 X133.734 Y91.409 E0.00770
G1 X133.972 Y91.472 E0.00774
G1 X134.177 Y91.612 E0.00777
G1 X134.318 Y91.812 E0.00768
G1 X134.384 Y92.050 E0.00773
G1 X134.364 Y92.295 E0.00771
G1 X134.227 Y92.594 E0.01032
G1 X133.795 Y93.171 E0.02259
G1 X133.462 Y94.166 E0.03288
G1 X133.490 Y95.232 E0.03346
G1 X133.882 Y96.227 E0.03352
G1 X134.591 Y97.026 E0.03350
G1 X135.529 Y97.534 E0.03343
G1 X136.584 Y97.692 E0.03346
G1 X137.613 Y97.481 E0.03293
G1 X138.239 Y97.121 E0.02263
G1 X138.551 Y97.022 E0.01026
G1 X138.797 Y97.032 E0.00773
G1 X139.025 Y97.125 E0.00770
G1 X139.206 Y97.291 E0.00772
G1 X139.322 Y97.510 E0.00777
G1 X139.355 Y97.753 E0.00769
G1 X139.302 Y97.994 E0.00773
G1 X139.171 Y98.202 E0.00771
G1 X138.912 Y98.402 E0.01024
G1 X138.259 Y98.713 E0.02268
G1 X137.504 Y99.440 E0.03289
G1 X137.031 Y100.397 E0.03346
G1 X136.918 Y101.460 E0.03351
G1 X137.174 Y102.496 E0.03346
G1 X137.767 Y103.383 E0.03345
G1 X138.555 Y103.959 E0.03060
G1 X140.683 Y104.334 E0.06773
G1 X140.894 Y104.456 E0.00766
G1 X141.053 Y104.645 E0.00776
G1 X141.138 Y104.877 E0.00774
G1 X141.138 Y105.123 E0.00770
G1 X141.053 Y105.355 E0.00774
G1 X140.894 Y105.544 E0.00776
G1 X140.683 Y105.666 E0.00766
G1 X140.359 Y105.723 E0.01029
G1 X139.639 Y105.696 E0.02260
G1 X138.630 Y105.987 E0.03292
G1 X137.767 Y106.617 E0.03350
G1 X137.173 Y107.505 E0.03351
G1 X136.918 Y108.540 E0.03342
G1 X137.031 Y109.603 E0.03351
M73 Q3 S20
G1 X137.503 Y110.559 E0.03343
G1 X138.260 Y111.287 E0.03293
G1 X138.912 Y111.598 E0.02267
G1 X139.171 Y111.798 E0.01024
G1 X139.302 Y112.005 E0.00771
G1 X139.355 Y112.247 E0.00774
G1 X139.322 Y112.490 E0.00769
G1 X139.206 Y112.709 E0.00777
G1 X139.025 Y112.875 E0.00773
G1 X138.798 Y112.968 E0.00767
G1 X138.551 Y112.978 E0.00776
G1 X138.239 Y112.879 E0.01026
G1 X137.613 Y112.519 E0.02263
G1 X136.584 Y112.308 E0.03293
M73 P3 R20
G1 X135.950 Y112.403 E0.02011
G1 X135.173 Y111.707 E0.03270
G1 X135.395 Y111.124 E0.01955
G1 X135.568 Y110.353 E0.02477
G1 X135.708 Y108.464 E0.05939
G1 X135.306 Y108.782 F10800.000
G1 F1200.000
G1 X114.694 Y108.782 E0.64627
G1 X114.807 Y110.298 E0.04767
G1 X114.968 Y111.015 E0.02305
G1 X115.232 Y111.712 E0.02335
G1 X115.593 Y112.379 E0.02381
G1 X116.045 Y113.011 E0.02435
G1 X116.581 Y113.602 E0.02501
G1 X117.194 Y114.148 E0.02575
G1 X117.877 Y114.647 E0.02651
G1 X118.624 Y115.094 E0.02729
G1 X119.427 Y115.488 E0.02804
G1 X120.279 Y115.825 E0.02874
G1 X121.172 Y116.105 E0.02936
G1 X122.100 Y116.324 E0.02988
G1 X123.052 Y116.481 E0.03027
G1 X124.022 Y116.577 E0.03055
G1 X125.000 Y116.608 E0.03068
G1 X125.978 Y116.577 E0.03069
G1 X126.948 Y116.481 E0.03055
G1 X127.901 Y116.324 E0.03027
G1 X128.828 Y116.105 E0.02988
G1 X129.722 Y115.825 E0.02936
G1 X130.573 Y115.488 E0.02873
G1 X131.377 Y115.094 E0.02805
G1 X132.123 Y114.647 E0.02729
G1 X132.807 Y114.148 E0.02654
