; generated by PrusaSlicer 2.3.1 on 2021-05-17 at 01:52:33 UTC

; 

; external perimeters extrusion width = 0.45mm
; perimeters extrusion width = 0.45mm
; infill extrusion width = 0.45mm
; solid infill extrusion width = 0.45mm
; top infill extrusion width = 0.40mm
; first layer extrusion width = 0.42mm

M73 P0 R21
M73 Q0 S21
M201 X1000 Y1000 Z200 E5000 ; sets maximum accelerations, mm/sec^2
M203 X200 Y200 Z12 E120 ; sets maximum feedrates, mm/sec
M204 P1250 R1250 T1250 ; sets acceleration (P, T) and retract acceleration (R), mm/sec^2
M205 X8.00 Y8.00 Z0.40 E4.50 ; sets the jerk limits, mm/sec
M205 S0 T0 ; sets the minimum extruding and travel feed rate, mm/sec
M107
;TYPE:Custom
M862.3 P "MK3S" ; printer model check
M862.1 P0.4 ; nozzle diameter check
M115 U3.9.3 ; tell printer latest fw version
G90 ; use absolute coordinates
M83 ; extruder relative mode
M104 S215 ; set extruder temp
M140 S60 ; set bed temp
M190 S60 ; wait for bed temp
M109 S215 ; wait for extruder temp
G28 W ; home all without mesh bed level
G80 ; mesh bed leveling
G1 Y-3.0 F1000.0 ; go outside print area
G92 E0.0
G1 X60.0 E9.0 F1000.0 ; intro line
G1 X100.0 E12.5 F1000.0 ; intro line
G92 E0.0
M221 S95

; Don't change E values below. Excessive value can damage the printer.

G21 ; set units to millimeters
G90 ; use absolute coordinates
M83 ; use relative distances for extrusion
M900 K0.05 ; Filament gcode LA 1.5
M900 K30 ; Filament gcode LA 1.0
;LAYER_CHANGE
;Z:0.2
;HEIGHT:0.2
;BEFORE_LAYER_CHANGE
G92 E0.0
;0.2


G1 E-0.80000 F2100.000
G1 Z0.400 F10800.000
;AFTER_LAYER_CHANGE
;0.2
G1 X111.537 Y96.238
G1 Z0.200
G1 E0.80000 F2100.000
M204 S1000
;TYPE:Skirt
;WIDTH:0.42
G1 F1200.000
G1 X112.244 Y95.359 E0.03538
G1 X112.693 Y94.935 E0.01934
G1 X119.217 Y90.429 E0.24861
G1 X120.373 Y89.923 E0.03958
G1 X120.989 Y89.770 E0.01988
G1 X129.029 Y88.815 E0.25386
G1 X130.559 Y89.039 E0.04850
G1 X137.924 Y91.831 E0.24695
G1 X139.024 Y92.501 E0.04039
G1 X139.504 Y92.922 E0.02001
G1 X144.704 Y98.796 E0.24598
G1 X145.373 Y99.938 E0.04150
G1 X145.566 Y100.464 E0.01758
G1 X147.436 Y108.050 E0.24496
G1 X147.505 Y109.319 E0.03985
G1 X147.425 Y109.978 E0.02082
G1 X145.565 Y117.519 E0.24352
G1 X145.352 Y118.086 E0.01899
G1 X144.702 Y119.187 E0.04008
G1 X139.473 Y125.092 E0.24731
G1 X138.466 Y125.863 E0.03976
G1 X137.916 Y126.153 E0.01950
G1 X130.561 Y128.940 E0.24663
G1 X129.023 Y129.166 E0.04873
G1 X120.942 Y128.203 E0.25517
G1 X119.728 Y127.813 E0.03999
G1 X119.180 Y127.527 E0.01937
G1 X112.788 Y123.113 E0.24356
G1 X112.303 Y122.686 E0.02026
G1 X111.503 Y121.682 E0.04025
G1 X107.871 Y114.761 E0.24509
M73 Q1 S21
G1 X107.666 Y114.239 E0.01758
G1 X107.409 Y112.938 E0.04157
G1 X107.408 Y105.119 E0.24516
M73 P1 R21
G1 X107.621 Y103.916 E0.03830
G1 X107.874 Y103.212 E0.02346
G1 X111.509 Y96.291 E0.24512
G1 X111.842 Y96.466 F10800.000
G1 F1200.000
G1 X112.927 Y95.231 E0.05152
G1 X119.424 Y90.744 E0.24758
G1 X120.502 Y90.277 E0.03685
G1 X121.037 Y90.144 E0.01728
G1 X129.027 Y89.192 E0.25230
G1 X130.443 Y89.398 E0.04486
G1 X137.781 Y92.180 E0.24604
G1 X138.807 Y92.809 E0.03774
G1 X139.227 Y93.178 E0.01752
G1 X144.413 Y99.036 E0.24532
G1 X145.032 Y100.098 E0.03853
G1 X145.202 Y100.562 E0.01550
G1 X147.068 Y108.133 E0.24449
G1 X147.127 Y109.319 E0.03723
G1 X147.059 Y109.885 E0.01787
G1 X145.201 Y117.424 E0.24345
G1 X145.014 Y117.918 E0.01657
G1 X144.410 Y118.948 E0.03744
G1 X139.199 Y124.833 E0.24646
G1 X138.257 Y125.550 E0.03713
G1 X137.779 Y125.801 E0.01692
G1 X130.444 Y128.582 E0.24595
G1 X129.024 Y128.789 E0.04500
G1 X121.000 Y127.831 E0.25339
G1 X119.866 Y127.463 E0.03737
G1 X119.388 Y127.212 E0.01692
G1 X113.002 Y122.803 E0.24331
G1 X112.583 Y122.434 E0.01752
G1 X111.832 Y121.499 E0.03761
G1 X108.207 Y114.590 E0.24462
G1 X108.028 Y114.133 E0.01538
G1 X107.786 Y112.924 E0.03868
G1 X107.785 Y105.119 E0.24471
G1 X107.991 Y103.989 E0.03603
G1 X108.211 Y103.383 E0.02020
G1 X111.814 Y96.519 E0.24308
; printing object iCode Coin Souvenir.stl id:0 copy 0
;WIPE_START
G1 F8640.000
G1 X112.927 Y95.231 E-0.39288
G1 X114.235 Y94.328 E-0.36712
;WIPE_END
G1 E-0.04000 F2100.000
G1 Z0.600 F10800.000
G1 X116.748 Y112.393
G1 Z0.200
G1 E0.80000 F2100.000
;TYPE:Perimeter
G1 F1200.000
G1 X138.164 Y112.393 E0.67147
G1 X138.019 Y114.341 E0.06125
G1 X137.846 Y115.112 E0.02477
G1 X137.564 Y115.856 E0.02498
G1 X137.180 Y116.567 E0.02532
G1 X136.702 Y117.235 E0.02576
G1 X136.138 Y117.857 E0.02632
G1 X135.496 Y118.429 E0.02695
G1 X134.785 Y118.947 E0.02762
G1 X134.010 Y119.411 E0.02830
G1 X133.180 Y119.818 E0.02900
G1 X132.302 Y120.166 E0.02962
G1 X131.382 Y120.454 E0.03020
G1 X130.430 Y120.679 E0.03068
G1 X129.453 Y120.841 E0.03106
G1 X128.459 Y120.938 E0.03132
G1 X127.456 Y120.971 E0.03145
G1 X126.454 Y120.938 E0.03144
G1 X125.460 Y120.841 E0.03132
G1 X124.482 Y120.679 E0.03107
G1 X123.530 Y120.454 E0.03067
G1 X122.611 Y120.166 E0.03020
G1 X121.732 Y119.818 E0.02963
G1 X120.902 Y119.411 E0.02899
G1 X120.128 Y118.947 E0.02830
G1 X119.416 Y118.429 E0.02762
G1 X118.775 Y117.857 E0.02695
G1 X118.211 Y117.235 E0.02631
G1 X117.733 Y116.567 E0.02576
G1 X117.348 Y115.856 E0.02533
G1 X117.066 Y115.111 E0.02497
G1 X116.893 Y114.341 E0.02476
G1 X116.753 Y112.453 E0.05936
G1 X117.155 Y112.770 F10800.000
G1 F1200.000
G1 X137.758 Y112.770 E0.64601
G1 X137.645 Y114.285 E0.04764
G1 X137.484 Y115.003 E0.02306
G1 X137.220 Y115.699 E0.02335
G1 X136.859 Y116.366 E0.02379
G1 X136.408 Y116.998 E0.02433
G1 X135.872 Y117.589 E0.02501
G1 X135.259 Y118.135 E0.02574
G1 X134.576 Y118.633 E0.02650
G1 X133.830 Y119.080 E0.02727
G1 X133.027 Y119.473 E0.02804
G1 X132.176 Y119.811 E0.02871
G1 X131.283 Y120.090 E0.02934
G1 X130.356 Y120.309 E0.02986
G1 X129.403 Y120.467 E0.03026
G1 X128.434 Y120.562 E0.03054
G1 X127.456 Y120.594 E0.03068
G1 X126.479 Y120.562 E0.03067
G1 X125.509 Y120.467 E0.03054
G1 X124.557 Y120.309 E0.03027
G1 X123.630 Y120.090 E0.02985
G1 X122.737 Y119.811 E0.02934
G1 X121.885 Y119.473 E0.02873
G1 X121.082 Y119.080 E0.02803
G1 X120.336 Y118.633 E0.02727
G1 X119.653 Y118.135 E0.02650
G1 X119.040 Y117.589 E0.02574
G1 X118.505 Y116.998 E0.02500
G1 X118.053 Y116.367 E0.02434
M73 Q2 S21
G1 X117.692 Y115.699 E0.02380
G1 X117.428 Y115.003 E0.02334
G1 X117.267 Y114.285 E0.02306
G1 X117.159 Y112.830 E0.04576
G1 X117.561 Y113.147 F10800.000
;TYPE:External perimeter
G1 F1200.000
G1 X137.352 Y113.147 E0.62054
M73 P2 R21
G1 X137.271 Y114.230 E0.03404
G1 X137.122 Y114.894 E0.02135
G1 X136.877 Y115.542 E0.02172
G1 X136.539 Y116.166 E0.02226
G1 X136.114 Y116.761 E0.02291
G1 X135.606 Y117.320 E0.02370
G1 X135.022 Y117.841 E0.02453
G1 X134.368 Y118.318 E0.02539
G1 X133.650 Y118.748 E0.02624
G1 X132.874 Y119.128 E0.02708
G1 X132.050 Y119.455 E0.02781
G1 X131.183 Y119.726 E0.02848
G1 X130.281 Y119.939 E0.02904
G1 X129.354 Y120.093 E0.02947
G1 X128.410 Y120.185 E0.02976
G1 X127.456 Y120.216 E0.02991
G1 X126.503 Y120.185 E0.02990
G1 X125.558 Y120.093 E0.02976
G1 X124.631 Y119.939 E0.02948
G1 X123.730 Y119.726 E0.02903
G1 X122.863 Y119.455 E0.02848
G1 X122.038 Y119.128 E0.02782
G1 X121.263 Y118.748 E0.02707
G1 X120.545 Y118.318 E0.02624
G1 X119.890 Y117.841 E0.02539
G1 X119.306 Y117.320 E0.02453
G1 X118.799 Y116.761 E0.02369
G1 X118.373 Y116.166 E0.02292
G1 X118.036 Y115.542 E0.02226
G1 X117.790 Y114.894 E0.02171
G1 X117.641 Y114.230 E0.02135
G1 X117.565 Y113.207 E0.03216
G1 X117.543 Y112.747 F10800.000
;WIPE_START
G1 F8640.000
G1 X120.857 Y113.197 E-0.76000
;WIPE_END
G1 E-0.04000 F2100.000
G1 Z0.600 F10800.000
G1 X138.164 Y105.588
G1 Z0.200
G1 E0.80000 F2100.000
;TYPE:Perimeter
G1 F1200.000
G1 X116.748 Y105.588 E0.67147
G1 X116.893 Y103.640 E0.06125
G1 X117.066 Y102.869 E0.02476
G1 X117.348 Y102.124 E0.02497
G1 X117.733 Y101.414 E0.02533
G1 X118.211 Y100.746 E0.02576
G1 X118.775 Y100.124 E0.02631
G1 X119.416 Y99.552 E0.02695
G1 X120.128 Y99.033 E0.02762
G1 X120.902 Y98.569 E0.02830
G1 X121.732 Y98.162 E0.02899
G1 X122.611 Y97.814 E0.02963
G1 X123.530 Y97.527 E0.03020
G1 X124.482 Y97.302 E0.03067
G1 X125.460 Y97.140 E0.03107
G1 X126.454 Y97.042 E0.03132
G1 X127.420 Y97.011 E0.03031
G1 X128.458 Y97.042 E0.03254
G1 X129.453 Y97.140 E0.03135
G1 X130.430 Y97.302 E0.03106
G1 X131.382 Y97.527 E0.03068
G1 X132.302 Y97.814 E0.03020
G1 X133.180 Y98.162 E0.02962
G1 X134.010 Y98.569 E0.02900
G1 X134.785 Y99.033 E0.02830
G1 X135.496 Y99.552 E0.02762
G1 X136.138 Y100.124 E0.02695
G1 X136.702 Y100.746 E0.02632
G1 X137.180 Y101.414 E0.02576
G1 X137.564 Y102.124 E0.02532
G1 X137.846 Y102.869 E0.02498
G1 X138.019 Y103.640 E0.02477
G1 X138.160 Y105.528 E0.05936
G1 X137.758 Y105.211 F10800.000
G1 F1200.000
G1 X117.155 Y105.211 E0.64601
G1 X117.267 Y103.695 E0.04764
G1 X117.428 Y102.978 E0.02306
G1 X117.692 Y102.281 E0.02334
G1 X118.053 Y101.614 E0.02380
G1 X118.505 Y100.983 E0.02434
G1 X119.040 Y100.392 E0.02500
G1 X119.653 Y99.846 E0.02574
G1 X120.336 Y99.348 E0.02650
G1 X121.082 Y98.901 E0.02727
G1 X121.885 Y98.507 E0.02803
G1 X122.737 Y98.170 E0.02873
G1 X123.630 Y97.891 E0.02934
G1 X124.557 Y97.671 E0.02985
G1 X125.509 Y97.514 E0.03027
G1 X126.479 Y97.419 E0.03054
G1 X127.421 Y97.388 E0.02956
G1 X128.433 Y97.419 E0.03177
G1 X129.403 Y97.514 E0.03056
G1 X130.356 Y97.671 E0.03026
G1 X131.283 Y97.891 E0.02986
G1 X132.176 Y98.170 E0.02934
G1 X133.027 Y98.507 E0.02871
G1 X133.830 Y98.901 E0.02804
G1 X134.576 Y99.348 E0.02727
G1 X135.259 Y99.846 E0.02650
G1 X135.872 Y100.392 E0.02574
G1 X136.408 Y100.983 E0.02501
G1 X136.859 Y101.614 E0.02433
G1 X137.220 Y102.281 E0.02379
G1 X137.484 Y102.978 E0.02335
G1 X137.645 Y103.695 E0.02306
G1 X137.754 Y105.151 E0.04576
G1 X137.352 Y104.833 F10800.000
;TYPE:External perimeter
G1 F1200.000
G1 X117.561 Y104.833 E0.62054
G1 X117.641 Y103.751 E0.03404
G1 X117.790 Y103.086 E0.02135
G1 X118.036 Y102.439 E0.02171
G1 X118.373 Y101.814 E0.02226
G1 X118.799 Y101.220 E0.02292
G1 X119.306 Y100.660 E0.02369
G1 X119.890 Y100.139 E0.02453
G1 X120.545 Y99.662 E0.02539
G1 X121.263 Y99.232 E0.02624
G1 X122.038 Y98.852 E0.02707
G1 X122.863 Y98.526 E0.02782
G1 X123.730 Y98.255 E0.02848
G1 X124.631 Y98.041 E0.02903
G1 X125.558 Y97.888 E0.02948
G1 X126.503 Y97.795 E0.02976
G1 X127.421 Y97.765 E0.02880
G1 X128.409 Y97.795 E0.03100
G1 X129.354 Y97.888 E0.02977
G1 X130.281 Y98.041 E0.02947
G1 X131.183 Y98.255 E0.02904
G1 X132.050 Y98.526 E0.02848
G1 X132.874 Y98.852 E0.02781
G1 X133.650 Y99.232 E0.02708
G1 X134.368 Y99.662 E0.02624
G1 X135.022 Y100.139 E0.02539
G1 X135.606 Y100.660 E0.02453
G1 X136.114 Y101.220 E0.02370
G1 X136.539 Y101.814 E0.02291
G1 X136.877 Y102.439 E0.02226
G1 X137.122 Y103.086 E0.02172
G1 X137.271 Y103.751 E0.02135
G1 X137.347 Y104.774 E0.03216
G1 X137.369 Y105.233 F10800.000
;WIPE_START
G1 F8640.000
G1 X134.056 Y104.784 E-0.76000
;WIPE_END
G1 E-0.04000 F2100.000
G1 Z0.600 F10800.000
G1 X141.005 Y107.950
G1 Z0.200
G1 E0.80000 F2100.000
;TYPE:Perimeter
G1 F1200.000
G1 X143.131 Y108.325 E0.06770
G1 X143.343 Y108.447 E0.00767
G1 X143.501 Y108.636 E0.00773
G1 X143.586 Y108.867 E0.00773
G1 X143.586 Y109.113 E0.00769
G1 X143.501 Y109.344 E0.00773
G1 X143.343 Y109.533 E0.00774
G1 X143.131 Y109.656 E0.00768
G1 X142.808 Y109.713 E0.01027
G1 X142.088 Y109.685 E0.02259
G1 X141.080 Y109.976 E0.03291
G1 X140.217 Y110.606 E0.03349
G1 X139.623 Y111.494 E0.03350
G1 X139.368 Y112.528 E0.03339
G1 X139.482 Y113.591 E0.03351
G1 X139.953 Y114.547 E0.03341
G1 X140.709 Y115.275 E0.03291
G1 X141.362 Y115.586 E0.02268
G1 X141.620 Y115.785 E0.01022
G1 X141.751 Y115.993 E0.00770
G1 X141.804 Y116.234 E0.00773
G1 X141.771 Y116.476 E0.00768
G1 X141.656 Y116.695 E0.00775
G1 X141.474 Y116.862 E0.00773
G1 X141.248 Y116.954 E0.00765
G1 X141.001 Y116.964 E0.00775
G1 X140.689 Y116.865 E0.01025
G1 X140.064 Y116.505 E0.02263
G1 X139.035 Y116.295 E0.03291
G1 X137.980 Y116.452 E0.03344
G1 X137.043 Y116.960 E0.03344
G1 X136.333 Y117.759 E0.03350
G1 X135.942 Y118.753 E0.03349
G1 X135.914 Y119.820 E0.03346
G1 X136.247 Y120.814 E0.03287
G1 X136.678 Y121.391 E0.02259
G1 X136.815 Y121.690 E0.01031
G1 X136.835 Y121.934 E0.00769
G1 X136.770 Y122.172 E0.00774
G1 X136.628 Y122.372 E0.00769
G1 X136.425 Y122.511 E0.00772
G1 X136.186 Y122.574 E0.00776
G1 X135.941 Y122.551 E0.00770
G1 X135.719 Y122.446 E0.00771
G1 X135.490 Y122.214 E0.01021
G1 X135.105 Y121.603 E0.02264
G1 X134.290 Y120.939 E0.03297
G1 X133.281 Y120.588 E0.03348
G1 X132.215 Y120.603 E0.03344
G1 X131.218 Y120.980 E0.03343
M73 Q3 S21
G1 X130.410 Y121.677 E0.03345
G1 X129.889 Y122.608 E0.03346
G1 X129.719 Y123.645 E0.03295
G1 X129.834 Y124.358 E0.02263
G1 X129.816 Y124.684 E0.01026
G1 X129.720 Y124.910 E0.00771
G1 X129.552 Y125.090 E0.00770
G1 X129.333 Y125.201 E0.00771
G1 X129.088 Y125.231 E0.00773
G1 X128.849 Y125.175 E0.00771
G1 X128.642 Y125.041 E0.00772
G1 X128.495 Y124.845 E0.00769
G1 X128.400 Y124.532 E0.01024
M73 P3 R21
G1 X128.341 Y123.813 E0.02261
G1 X127.929 Y122.847 E0.03294
G1 X127.200 Y122.066 E0.03349
G1 X126.248 Y121.584 E0.03347
G1 X125.190 Y121.455 E0.03343
G1 X124.149 Y121.697 E0.03351
G1 X123.256 Y122.280 E0.03343
G1 X122.625 Y123.119 E0.03291
G1 X122.395 Y123.803 E0.02261
G1 X122.228 Y124.084 E0.01026
G1 X122.037 Y124.240 E0.00774
G1 X121.807 Y124.320 E0.00765
G1 X121.560 Y124.317 E0.00774
G1 X121.328 Y124.229 E0.00776
G1 X121.143 Y124.069 E0.00768
G1 X121.023 Y123.854 E0.00772
G1 X120.984 Y123.611 E0.00772
G1 X121.044 Y123.291 E0.01021
G1 X121.327 Y122.627 E0.02264
G1 X121.411 Y121.578 E0.03299
G1 X121.127 Y120.551 E0.03341
G1 X120.510 Y119.681 E0.03344
G1 X119.632 Y119.074 E0.03347
G1 X118.599 Y118.805 E0.03348
G1 X117.538 Y118.905 E0.03342
G1 X116.589 Y119.354 E0.03292
G1 X116.067 Y119.854 E0.02265
G1 X115.787 Y120.025 E0.01028
G1 X115.547 Y120.075 E0.00769
G1 X115.304 Y120.039 E0.00769
G1 X115.087 Y119.921 E0.00774
G1 X114.924 Y119.737 E0.00770
G1 X114.834 Y119.509 E0.00769
G1 X114.828 Y119.262 E0.00775
G1 X114.906 Y119.028 E0.00773
G1 X115.109 Y118.772 E0.01024
G1 X115.667 Y118.316 E0.02260
G1 X116.227 Y117.429 E0.03289
G1 X116.457 Y116.385 E0.03350
G1 X116.312 Y115.327 E0.03348
G1 X115.818 Y114.384 E0.03338
G1 X115.028 Y113.664 E0.03352
G1 X114.040 Y113.260 E0.03344
G1 X112.990 Y113.217 E0.03295
G1 X112.298 Y113.417 E0.02261
G1 X111.972 Y113.440 E0.01024
G1 X111.736 Y113.371 E0.00769
G1 X111.537 Y113.226 E0.00772
G1 X111.400 Y113.021 E0.00772
G1 X111.341 Y112.782 E0.00773
G1 X111.367 Y112.538 E0.00770
G1 X111.476 Y112.317 E0.00773
G1 X111.653 Y112.146 E0.00770
G1 X111.952 Y112.015 E0.01023
G1 X112.660 Y111.869 E0.02266
G1 X113.569 Y111.344 E0.03292
G1 X114.253 Y110.527 E0.03342
G1 X114.620 Y109.525 E0.03344
G1 X114.620 Y108.455 E0.03356
G1 X114.253 Y107.453 E0.03343
G1 X113.569 Y106.636 E0.03344
G1 X112.660 Y106.112 E0.03290
G1 X111.952 Y105.965 E0.02267
G1 X111.653 Y105.834 E0.01024
G1 X111.476 Y105.664 E0.00769
G1 X111.367 Y105.443 E0.00772
G1 X111.341 Y105.198 E0.00771
G1 X111.400 Y104.959 E0.00771
G1 X111.537 Y104.755 E0.00773
G1 X111.736 Y104.609 E0.00773
G1 X111.972 Y104.541 E0.00771
G1 X112.297 Y104.563 E0.01022
G1 X112.990 Y104.763 E0.02262
G1 X114.040 Y104.720 E0.03295
G1 X115.028 Y104.316 E0.03345
G1 X115.818 Y103.596 E0.03353
G1 X116.312 Y102.653 E0.03339
G1 X116.457 Y101.595 E0.03347
G1 X116.227 Y100.551 E0.03350
G1 X115.667 Y99.665 E0.03288
G1 X115.109 Y99.208 E0.02261
G1 X114.906 Y98.952 E0.01025
G1 X114.828 Y98.718 E0.00773
G1 X114.834 Y98.472 E0.00773
G1 X114.924 Y98.243 E0.00770
G1 X115.087 Y98.060 E0.00768
G1 X115.304 Y97.942 E0.00776
G1 X115.547 Y97.906 E0.00769
G1 X115.787 Y97.955 E0.00770
G1 X116.067 Y98.126 E0.01027
G1 X116.589 Y98.626 E0.02266
G1 X117.538 Y99.075 E0.03291
G1 X118.599 Y99.175 E0.03342
G1 X119.632 Y98.906 E0.03349
G1 X120.510 Y98.299 E0.03348
G1 X121.127 Y97.430 E0.03342
G1 X121.411 Y96.402 E0.03342
G1 X121.327 Y95.353 E0.03299
G1 X121.044 Y94.689 E0.02264
G1 X120.984 Y94.369 E0.01022
G1 X121.023 Y94.126 E0.00773
G1 X121.143 Y93.911 E0.00770
G1 X121.329 Y93.750 E0.00772
G1 X121.560 Y93.663 E0.00774
G1 X121.806 Y93.660 E0.00772
G1 X122.037 Y93.740 E0.00766
G1 X122.228 Y93.897 E0.00775
G1 X122.395 Y94.178 E0.01025
G1 X122.625 Y94.861 E0.02261
G1 X123.256 Y95.701 E0.03294
G1 X124.149 Y96.283 E0.03341
