; generated by PrusaSlicer 2.3.1 on 2021-05-18 at 21:59:04 UTC

; 

; external perimeters extrusion width = 0.45mm
; perimeters extrusion width = 0.45mm
; infill extrusion width = 0.45mm
; solid infill extrusion width = 0.45mm
; top infill extrusion width = 0.40mm
; first layer extrusion width = 0.42mm

; external perimeters extrusion width = 0.45mm
; perimeters extrusion width = 0.45mm
; infill extrusion width = 0.45mm
; solid infill extrusion width = 0.45mm
; top infill extrusion width = 0.40mm
; first layer extrusion width = 0.42mm

M73 P0 R42
M73 Q0 S42
M201 X1000 Y1000 Z200 E5000 ; sets maximum accelerations, mm/sec^2
M203 X200 Y200 Z12 E120 ; sets maximum feedrates, mm/sec
M204 P1250 R1250 T1250 ; sets acceleration (P, T) and retract acceleration (R), mm/sec^2
M205 X8.00 Y8.00 Z0.40 E4.50 ; sets the jerk limits, mm/sec
M205 S0 T0 ; sets the minimum extruding and travel feed rate, mm/sec
M107
;TYPE:Custom
M862.3 P "MK3S" ; printer model check
M862.1 P0.4 ; nozzle diameter check
M115 U3.9.3 ; tell printer latest fw version
G90 ; use absolute coordinates
M83 ; extruder relative mode
M104 S215 ; set extruder temp
M140 S60 ; set bed temp
M190 S60 ; wait for bed temp
M109 S215 ; wait for extruder temp
G28 W ; home all without mesh bed level
G80 ; mesh bed leveling
G1 Y-3.0 F1000.0 ; go outside print area
G92 E0.0
G1 X60.0 E9.0 F1000.0 ; intro line
M73 P0 R41
G1 X100.0 E12.5 F1000.0 ; intro line
G92 E0.0
M221 S95

; Don't change E values below. Excessive value can damage the printer.

G21 ; set units to millimeters
G90 ; use absolute coordinates
M83 ; use relative distances for extrusion
M900 K0.05 ; Filament gcode LA 1.5
M900 K30 ; Filament gcode LA 1.0
;LAYER_CHANGE
;Z:0.2
;HEIGHT:0.2
;BEFORE_LAYER_CHANGE
G92 E0.0
;0.2


G1 E-0.80000 F2100.000
G1 Z0.400 F10800.000
;AFTER_LAYER_CHANGE
;0.2
G1 X72.705 Y92.540
G1 Z0.200
G1 E0.80000 F2100.000
M204 S1000
;TYPE:Skirt
;WIDTH:0.42
G1 F1200.000
G1 X79.179 Y88.069 E0.24668
G1 X80.262 Y87.601 E0.03698
G1 X80.797 Y87.469 E0.01728
G1 X88.787 Y86.517 E0.25229
G1 X162.355 Y87.292 E2.30680
G1 X163.707 Y87.487 E0.04285
G1 X171.117 Y90.295 E0.24845
G1 X172.161 Y90.948 E0.03860
G1 X172.527 Y91.279 E0.01550
G1 X177.701 Y97.122 E0.24471
G1 X178.307 Y98.147 E0.03734
G1 X178.508 Y98.677 E0.01775
G1 X180.367 Y106.218 E0.24353
G1 X180.431 Y106.746 E0.01668
G1 X180.376 Y107.937 E0.03738
G1 X178.461 Y115.681 E0.25011
G1 X177.718 Y117.053 E0.04894
G1 X172.525 Y122.918 E0.24561
G1 X172.127 Y123.272 E0.01668
G1 X171.118 Y123.900 E0.03727
G1 X163.813 Y126.671 E0.24498
G1 X162.549 Y126.893 E0.04024
G1 X88.733 Y126.128 E2.31459
M73 Q0 S41
G1 X80.359 Y125.078 E0.26460
G1 X79.185 Y124.579 E0.04000
G1 X72.726 Y120.121 E0.24605
G1 X72.330 Y119.766 E0.01669
G1 X71.586 Y118.841 E0.03724
G1 X67.937 Y111.884 E0.24632
G1 X67.599 Y110.744 E0.03726
G1 X67.535 Y110.201 E0.01716
G1 X67.535 Y102.435 E0.24351
G1 X67.590 Y101.943 E0.01550
G1 X67.935 Y100.764 E0.03852
G1 X71.579 Y93.818 E0.24596
G1 X71.884 Y93.381 E0.01669
G1 X72.663 Y92.583 E0.03499
; printing object iCode Coin Souvenir V3-3.stl id:1 copy 0
;WIPE_START
G1 F8640.000
G1 X75.369 Y90.708 E-0.76000
;WIPE_END
G1 E-0.04000 F2100.000
G1 Z0.600 F10800.000
G1 X171.465 Y103.693
G1 Z0.200
G1 E0.80000 F2100.000
;TYPE:Perimeter
G1 F1200.000
G1 X150.040 Y103.693 E0.67174
G1 X150.185 Y101.745 E0.06125
G1 X150.358 Y100.974 E0.02477
G1 X150.640 Y100.229 E0.02499
G1 X151.025 Y99.518 E0.02533
G1 X151.503 Y98.849 E0.02579
G1 X152.067 Y98.228 E0.02632
G1 X152.709 Y97.656 E0.02695
G1 X153.421 Y97.136 E0.02764
G1 X154.196 Y96.672 E0.02831
G1 X155.026 Y96.265 E0.02900
G1 X155.905 Y95.917 E0.02964
G1 X156.825 Y95.629 E0.03021
G1 X157.778 Y95.404 E0.03070
G1 X158.755 Y95.242 E0.03107
G1 X159.750 Y95.145 E0.03133
G1 X160.752 Y95.112 E0.03145
G1 X161.755 Y95.145 E0.03146
G1 X162.750 Y95.242 E0.03133
G1 X163.727 Y95.404 E0.03107
G1 X164.680 Y95.629 E0.03070
G1 X165.600 Y95.917 E0.03021
G1 X166.478 Y96.265 E0.02963
G1 X167.309 Y96.672 E0.02901
G1 X168.084 Y97.136 E0.02832
G1 X168.796 Y97.656 E0.02764
G1 X169.438 Y98.228 E0.02695
G1 X170.002 Y98.850 E0.02633
G1 X170.480 Y99.519 E0.02578
G1 X170.864 Y100.228 E0.02531
G1 X171.147 Y100.974 E0.02499
G1 X171.320 Y101.745 E0.02478
G1 X171.460 Y103.633 E0.05937
G1 X171.058 Y103.316 F10800.000
G1 F1200.000
G1 X150.446 Y103.316 E0.64627
M73 P1 R41
M73 Q1 S41
G1 X150.559 Y101.800 E0.04765
G1 X150.720 Y101.083 E0.02306
G1 X150.984 Y100.386 E0.02336
G1 X151.345 Y99.719 E0.02379
G1 X151.797 Y99.087 E0.02436
G1 X152.333 Y98.496 E0.02501
G1 X152.946 Y97.950 E0.02574
G1 X153.629 Y97.451 E0.02652
G1 X154.376 Y97.004 E0.02728
G1 X155.179 Y96.610 E0.02804
G1 X156.031 Y96.273 E0.02874
G1 X156.925 Y95.993 E0.02935
G1 X157.852 Y95.774 E0.02988
G1 X158.804 Y95.616 E0.03027
G1 X159.774 Y95.521 E0.03055
G1 X160.752 Y95.489 E0.03068
G1 X161.731 Y95.521 E0.03069
G1 X162.700 Y95.616 E0.03055
G1 X163.653 Y95.774 E0.03027
G1 X164.580 Y95.993 E0.02988
G1 X165.474 Y96.273 E0.02935
G1 X166.326 Y96.610 E0.02873
G1 X167.129 Y97.004 E0.02805
G1 X167.875 Y97.451 E0.02729
G1 X168.559 Y97.950 E0.02652
G1 X169.172 Y98.496 E0.02574
G1 X169.708 Y99.087 E0.02501
G1 X170.159 Y99.719 E0.02435
G1 X170.521 Y100.386 E0.02378
G1 X170.785 Y101.082 E0.02336
G1 X170.946 Y101.800 E0.02307
G1 X171.054 Y103.256 E0.04577
G1 X170.652 Y102.939 F10800.000
;TYPE:External perimeter
G1 F1200.000
G1 X150.853 Y102.939 E0.62081
G1 X150.933 Y101.856 E0.03405
G1 X151.082 Y101.191 E0.02136
G1 X151.328 Y100.543 E0.02173
G1 X151.666 Y99.919 E0.02226
G1 X152.091 Y99.324 E0.02294
G1 X152.599 Y98.764 E0.02370
G1 X153.183 Y98.243 E0.02454
G1 X153.838 Y97.766 E0.02541
G1 X154.556 Y97.336 E0.02625
G1 X155.331 Y96.955 E0.02708
G1 X156.157 Y96.628 E0.02783
G1 X157.024 Y96.357 E0.02850
G1 X157.926 Y96.144 E0.02906
G1 X158.854 Y95.990 E0.02948
G1 X159.799 Y95.898 E0.02977
G1 X160.752 Y95.867 E0.02991
G1 X161.706 Y95.898 E0.02992
G1 X162.651 Y95.990 E0.02977
G1 X163.579 Y96.144 E0.02948
G1 X164.481 Y96.357 E0.02906
G1 X165.348 Y96.628 E0.02850
G1 X166.173 Y96.955 E0.02782
G1 X166.949 Y97.336 E0.02709
G1 X167.667 Y97.766 E0.02625
G1 X168.322 Y98.243 E0.02541
G1 X168.906 Y98.764 E0.02454
G1 X169.414 Y99.324 E0.02370
G1 X169.839 Y99.919 E0.02293
G1 X170.177 Y100.543 E0.02225
G1 X170.423 Y101.191 E0.02173
G1 X170.572 Y101.856 E0.02136
G1 X170.648 Y102.879 E0.03217
G1 X170.670 Y103.338 F10800.000
;WIPE_START
G1 F8640.000
G1 X167.356 Y102.889 E-0.76000
;WIPE_END
G1 E-0.04000 F2100.000
G1 Z0.600 F10800.000
G1 X171.465 Y110.502
G1 Z0.200
G1 E0.80000 F2100.000
;TYPE:Perimeter
G1 F1200.000
G1 X150.040 Y110.502 E0.67174
G1 X150.185 Y112.451 E0.06127
G1 X150.358 Y113.221 E0.02476
G1 X150.640 Y113.966 E0.02498
G1 X151.025 Y114.677 E0.02534
G1 X151.503 Y115.346 E0.02577
G1 X152.067 Y115.968 E0.02632
G1 X152.709 Y116.540 E0.02696
G1 X153.421 Y117.059 E0.02762
G1 X154.196 Y117.523 E0.02832
G1 X155.026 Y117.930 E0.02900
G1 X155.905 Y118.279 E0.02964
G1 X156.825 Y118.566 E0.03022
G1 X157.778 Y118.792 E0.03070
G1 X158.755 Y118.953 E0.03106
G1 X159.750 Y119.051 E0.03133
G1 X160.752 Y119.083 E0.03145
G1 X161.755 Y119.051 E0.03146
G1 X162.750 Y118.953 E0.03133
G1 X163.727 Y118.792 E0.03106
G1 X164.680 Y118.566 E0.03070
G1 X165.600 Y118.279 E0.03022
G1 X166.478 Y117.930 E0.02963
G1 X167.309 Y117.523 E0.02901
G1 X168.084 Y117.059 E0.02832
G1 X168.769 Y116.560 E0.02658
G1 X169.240 Y116.982 E0.01982
G1 X169.215 Y117.932 E0.02980
G1 X169.548 Y118.926 E0.03288
G1 X169.979 Y119.504 E0.02260
G1 X170.116 Y119.803 E0.01032
G1 X170.136 Y120.048 E0.00771
G1 X170.071 Y120.286 E0.00774
G1 X169.929 Y120.486 E0.00770
G1 X169.725 Y120.626 E0.00774
G1 X169.486 Y120.689 E0.00776
G1 X169.242 Y120.665 E0.00769
G1 X169.019 Y120.559 E0.00774
G1 X168.790 Y120.327 E0.01022
G1 X168.404 Y119.717 E0.02265
G1 X167.589 Y119.053 E0.03297
G1 X166.580 Y118.701 E0.03348
G1 X165.513 Y118.716 E0.03346
G1 X164.516 Y119.094 E0.03345
G1 X163.707 Y119.791 E0.03346
G1 X163.187 Y120.722 E0.03345
G1 X163.016 Y121.759 E0.03297
G1 X163.132 Y122.472 E0.02264
G1 X163.114 Y122.799 E0.01027
G1 X163.017 Y123.026 E0.00773
G1 X162.850 Y123.205 E0.00770
G1 X162.630 Y123.316 E0.00772
G1 X162.385 Y123.346 E0.00773
G1 X162.145 Y123.290 E0.00773
G1 X161.938 Y123.156 E0.00774
G1 X161.791 Y122.960 E0.00769
G1 X161.696 Y122.647 E0.01025
G1 X161.637 Y121.928 E0.02263
G1 X161.225 Y120.961 E0.03295
G1 X160.496 Y120.180 E0.03349
G1 X159.544 Y119.697 E0.03347
G1 X158.484 Y119.569 E0.03346
G1 X157.444 Y119.811 E0.03351
G1 X156.551 Y120.394 E0.03344
G1 X155.920 Y121.233 E0.03291
G1 X155.690 Y121.917 E0.02262
G1 X155.522 Y122.198 E0.01028
G1 X155.331 Y122.355 E0.00776
G1 X155.100 Y122.436 E0.00766
G1 X154.854 Y122.432 E0.00773
G1 X154.622 Y122.344 E0.00778
G1 X154.436 Y122.184 E0.00769
G1 X154.316 Y121.969 E0.00772
G1 X154.276 Y121.725 E0.00773
G1 X154.337 Y121.405 E0.01022
G1 X154.620 Y120.741 E0.02265
G1 X154.704 Y119.692 E0.03299
G1 X154.420 Y118.664 E0.03344
G1 X153.803 Y117.794 E0.03344
G1 X152.925 Y117.187 E0.03347
G1 X151.892 Y116.918 E0.03347
G1 X150.829 Y117.018 E0.03346
G1 X149.880 Y117.467 E0.03292
G1 X149.358 Y117.967 E0.02267
G1 X149.079 Y118.138 E0.01028
G1 X148.837 Y118.188 E0.00771
G1 X148.595 Y118.152 E0.00769
G1 X148.377 Y118.034 E0.00776
G1 X148.214 Y117.850 E0.00773
G1 X148.124 Y117.621 E0.00769
G1 X148.118 Y117.374 E0.00776
G1 X148.196 Y117.140 E0.00774
G1 X148.399 Y116.884 E0.01025
G1 X148.957 Y116.427 E0.02261
G1 X149.518 Y115.540 E0.03290
G1 X149.747 Y114.496 E0.03351
G1 X149.602 Y113.438 E0.03349
G1 X149.108 Y112.495 E0.03339
G1 X148.318 Y111.774 E0.03353
G1 X147.330 Y111.370 E0.03345
G1 X146.280 Y111.327 E0.03295
G1 X145.587 Y111.528 E0.02262
G1 X145.261 Y111.550 E0.01024
G1 X145.025 Y111.481 E0.00771
G1 X144.826 Y111.336 E0.00773
G1 X144.688 Y111.131 E0.00773
G1 X144.629 Y110.891 E0.00774
G1 X144.656 Y110.647 E0.00771
G1 X144.764 Y110.425 E0.00774
G1 X144.941 Y110.255 E0.00770
G1 X145.241 Y110.123 E0.01025
G1 X145.949 Y109.977 E0.02267
G1 X146.858 Y109.453 E0.03292
G1 X147.543 Y108.634 E0.03345
G1 X147.909 Y107.633 E0.03343
G1 X147.909 Y106.562 E0.03359
G1 X147.543 Y105.561 E0.03342
G1 X146.858 Y104.743 E0.03345
G1 X145.949 Y104.218 E0.03292
G1 X145.241 Y104.072 E0.02267
G1 X144.941 Y103.940 E0.01026
G1 X144.764 Y103.770 E0.00769
G1 X144.656 Y103.549 E0.00773
G1 X144.629 Y103.304 E0.00772
G1 X144.688 Y103.065 E0.00771
G1 X144.826 Y102.860 E0.00776
G1 X145.025 Y102.714 E0.00773
G1 X145.261 Y102.646 E0.00772
G1 X145.587 Y102.668 E0.01024
G1 X146.280 Y102.868 E0.02263
G1 X147.330 Y102.825 E0.03295
G1 X148.318 Y102.421 E0.03346
G1 X149.108 Y101.701 E0.03353
G1 X149.602 Y100.757 E0.03339
G1 X149.747 Y99.699 E0.03349
G1 X149.518 Y98.655 E0.03351
G1 X148.957 Y97.768 E0.03290
G1 X148.399 Y97.311 E0.02261
G1 X148.196 Y97.056 E0.01025
G1 X148.117 Y96.821 E0.00775
G1 X148.124 Y96.574 E0.00775
G1 X148.214 Y96.345 E0.00770
G1 X148.377 Y96.162 E0.00769
G1 X148.595 Y96.044 E0.00778
G1 X148.838 Y96.008 E0.00769
G1 X149.078 Y96.057 E0.00771
G1 X149.358 Y96.228 E0.01028
G1 X149.880 Y96.728 E0.02267
G1 X150.829 Y97.178 E0.03293
G1 X151.892 Y97.277 E0.03345
G1 X152.925 Y97.009 E0.03347
G1 X153.803 Y96.401 E0.03349
G1 X154.420 Y95.532 E0.03343
G1 X154.704 Y94.504 E0.03343
G1 X154.620 Y93.455 E0.03300
G1 X154.337 Y92.790 E0.02265
G1 X154.276 Y92.470 E0.01022
G1 X154.316 Y92.226 E0.00774
G1 X154.436 Y92.012 E0.00771
G1 X154.622 Y91.851 E0.00771
G1 X154.854 Y91.763 E0.00777
G1 X155.100 Y91.760 E0.00773
G1 X155.331 Y91.840 E0.00766
G1 X155.522 Y91.997 E0.00776
G1 X155.690 Y92.279 E0.01028
G1 X155.920 Y92.962 E0.02260
G1 X156.551 Y93.802 E0.03294
G1 X157.444 Y94.384 E0.03342
G1 X158.484 Y94.627 E0.03351
G1 X159.544 Y94.498 E0.03346
G1 X160.496 Y94.015 E0.03347
G1 X161.225 Y93.234 E0.03350
G1 X161.637 Y92.268 E0.03294
G1 X161.696 Y91.549 E0.02261
G1 X161.791 Y91.235 E0.01027
G1 X161.938 Y91.039 E0.00769
G1 X162.145 Y90.905 E0.00773
G1 X162.386 Y90.849 E0.00777
G1 X162.629 Y90.878 E0.00766
G1 X162.850 Y90.990 E0.00776
G1 X163.018 Y91.170 E0.00771
G1 X163.114 Y91.396 E0.00772
G1 X163.132 Y91.723 E0.01027
G1 X163.016 Y92.436 E0.02264
G1 X163.186 Y93.473 E0.03296
G1 X163.707 Y94.404 E0.03345
G1 X164.516 Y95.102 E0.03346
G1 X165.513 Y95.479 E0.03345
G1 X166.580 Y95.494 E0.03346
G1 X167.588 Y95.143 E0.03347
G1 X168.403 Y94.479 E0.03296
G1 X168.790 Y93.868 E0.02266
G1 X169.019 Y93.636 E0.01022
G1 X169.242 Y93.530 E0.00774
G1 X169.486 Y93.507 E0.00770
G1 X169.725 Y93.569 E0.00774
G1 X169.929 Y93.710 E0.00777
G1 X170.071 Y93.910 E0.00768
G1 X170.136 Y94.147 E0.00773
G1 X170.116 Y94.393 E0.00771
G1 X169.979 Y94.692 E0.01032
G1 X169.548 Y95.269 E0.02259
G1 X169.215 Y96.263 E0.03288
G1 X169.243 Y97.330 E0.03346
G1 X169.634 Y98.325 E0.03352
G1 X170.344 Y99.124 E0.03350
G1 X171.281 Y99.632 E0.03343
G1 X172.337 Y99.789 E0.03346
G1 X173.365 Y99.579 E0.03293
G1 X173.991 Y99.219 E0.02263
G1 X174.303 Y99.120 E0.01026
G1 X174.550 Y99.130 E0.00773
G1 X174.777 Y99.222 E0.00770
G1 X174.959 Y99.389 E0.00772
G1 X175.074 Y99.608 E0.00777
G1 X175.107 Y99.851 E0.00769
G1 X175.054 Y100.092 E0.00773
G1 X174.923 Y100.300 E0.00771
G1 X174.665 Y100.500 E0.01024
G1 X174.012 Y100.811 E0.02268
G1 X173.256 Y101.538 E0.03289
G1 X172.784 Y102.495 E0.03346
G1 X172.670 Y103.558 E0.03351
G1 X172.926 Y104.594 E0.03346
G1 X173.519 Y105.481 E0.03345
G1 X174.308 Y106.056 E0.03060
G1 X176.435 Y106.431 E0.06773
G1 X176.647 Y106.553 E0.00766
G1 X176.805 Y106.743 E0.00776
G1 X176.890 Y106.975 E0.00774
G1 X176.890 Y107.220 E0.00770
G1 X176.805 Y107.452 E0.00774
G1 X176.647 Y107.642 E0.00776
G1 X176.435 Y107.764 E0.00766
G1 X176.112 Y107.821 E0.01029
G1 X175.391 Y107.793 E0.02260
G1 X174.383 Y108.085 E0.03292
G1 X173.519 Y108.714 E0.03350
G1 X172.925 Y109.603 E0.03351
G1 X172.670 Y110.638 E0.03342
G1 X172.784 Y111.700 E0.03351
G1 X173.255 Y112.656 E0.03343
G1 X174.012 Y113.385 E0.03293
G1 X174.665 Y113.696 E0.02267
G1 X174.923 Y113.895 E0.01024
G1 X175.054 Y114.103 E0.00771
G1 X175.107 Y114.344 E0.00774
G1 X175.074 Y114.587 E0.00769
G1 X174.959 Y114.807 E0.00777
G1 X174.777 Y114.973 E0.00773
G1 X174.550 Y115.066 E0.00767
G1 X174.303 Y115.076 E0.00776
G1 X173.991 Y114.976 E0.01026
G1 X173.365 Y114.617 E0.02263
G1 X172.337 Y114.406 E0.03293
G1 X171.702 Y114.501 E0.02011
G1 X170.926 Y113.805 E0.03270
G1 X171.147 Y113.222 E0.01955
G1 X171.320 Y112.451 E0.02477
G1 X171.460 Y110.562 E0.05939
G1 X171.058 Y110.879 F10800.000
G1 F1200.000
G1 X150.446 Y110.879 E0.64627
G1 X150.559 Y112.395 E0.04767
G1 X150.720 Y113.113 E0.02305
G1 X150.984 Y113.809 E0.02335
G1 X151.345 Y114.477 E0.02381
G1 X151.797 Y115.109 E0.02435
G1 X152.333 Y115.700 E0.02501
G1 X152.946 Y116.246 E0.02575
G1 X153.629 Y116.744 E0.02651
G1 X154.376 Y117.192 E0.02729
G1 X155.179 Y117.585 E0.02804
G1 X156.031 Y117.923 E0.02874
G1 X156.925 Y118.202 E0.02936
G1 X157.852 Y118.422 E0.02988
G1 X158.804 Y118.579 E0.03027
G1 X159.774 Y118.674 E0.03055
G1 X160.752 Y118.706 E0.03068
G1 X161.731 Y118.674 E0.03069
G1 X162.700 Y118.579 E0.03055
G1 X163.653 Y118.422 E0.03027
G1 X164.580 Y118.202 E0.02988
G1 X165.474 Y117.923 E0.02936
G1 X166.326 Y117.585 E0.02873
G1 X167.129 Y117.192 E0.02805
G1 X167.875 Y116.744 E0.02729
G1 X168.559 Y116.246 E0.02654
G1 X168.772 Y116.056 E0.00893
G1 X169.655 Y116.847 E0.03720
G1 X169.618 Y116.941 E0.00317
G1 X169.593 Y117.875 E0.02929
G1 X169.886 Y118.749 E0.02890
G1 X170.305 Y119.310 E0.02195
G1 X170.486 Y119.706 E0.01365
G1 X170.517 Y120.084 E0.01188
G1 X170.417 Y120.450 E0.01191
G1 X170.197 Y120.759 E0.01188
G1 X169.884 Y120.974 E0.01190
G1 X169.517 Y121.070 E0.01192
G1 X169.140 Y121.035 E0.01187
G1 X168.797 Y120.872 E0.01191
G1 X168.493 Y120.563 E0.01357
G1 X168.118 Y119.970 E0.02200
G1 X167.402 Y119.387 E0.02896
G1 X166.519 Y119.079 E0.02931
G1 X165.585 Y119.092 E0.02930
G1 X164.711 Y119.423 E0.02928
G1 X164.004 Y120.033 E0.02929
G1 X163.548 Y120.848 E0.02929
G1 X163.399 Y121.760 E0.02896
G1 X163.510 Y122.452 E0.02198
G1 X163.487 Y122.886 E0.01362
G1 X163.338 Y123.235 E0.01190
G1 X163.080 Y123.511 E0.01187
G1 X162.741 Y123.683 E0.01189
G1 X162.365 Y123.729 E0.01190
G1 X161.995 Y123.642 E0.01189
G1 X161.677 Y123.436 E0.01190
